;FLAVOR:Marlin
;TIME:3028
;Filament used: 1.97471m
;Layer height: 0.2
;MINX:79.864
;MINY:76.689
;MINZ:0.2
;MAXX:140.135
;MAXY:136.96
;MAXZ:6.4
;TARGET_MACHINE.NAME:Creality Ender-3 V3 SE
;Generated with Cura_SteamEngine 5.6.0
M140 S60
M105
M190 S60
M104 S220
M105
M109 S220
M82 ;absolute extrusion mode
M220 S100 ;Reset Feedrate
M221 S100 ;Reset Flowrate

G28 ;Home

M420 S1; Enable mesh leveling

G92 E0 ;Reset Extruder
G1 Z2.0 F3000 ;Move Z Axis up
G1 X10.1 Y20 Z0.28 F5000.0 ;Move to start position
M109 S[material_print_temperature_layer_0]
G1 X10.1 Y145.0 Z0.28 F1500.0 E15 ;Draw the first line
G1 X10.4 Y145.0 Z0.28 F5000.0 ;Move to side a little
G1 X10.4 Y20 Z0.28 F1500.0 E30 ;Draw the second line
G92 E0  ;Reset Extruder
G1 E-1.0000 F1800 ;Retract a bit
G1 Z2.0 F3000 ;Move Z Axis up
G1 E0.0000 F1800 

G92 E0
G92 E0
G1 F2400 E-0.8
;LAYER_COUNT:32
;LAYER:0
M107
G0 F1800 X83.32 Y79.702 Z0.2
;TYPE:SKIRT
G1 F2400 E0
G1 F1800 X84.056 Y79.065 E0.03237
G1 X84.788 Y78.535 E0.06243
G1 X85.685 Y78 E0.09717
G1 X86.563 Y77.579 E0.12956
G1 X87.476 Y77.237 E0.16198
G1 X88.413 Y76.978 E0.19432
G1 X89.38 Y76.8 E0.22702
G1 X90.519 Y76.704 E0.26504
G1 X91.176 Y76.689 E0.2869
G1 X128.439 Y76.689 E1.52627
G1 X129.319 Y76.702 E1.55554
G1 X130.291 Y76.761 E1.58793
G1 X131.254 Y76.907 E1.62032
G1 X132.201 Y77.138 E1.65274
G1 X133.089 Y77.438 E1.68392
G1 X133.981 Y77.828 E1.7163
G1 X134.864 Y78.315 E1.74984
G1 X135.615 Y78.817 E1.77988
G1 X136.43 Y79.475 E1.81472
G1 X137.128 Y80.153 E1.84709
G1 X137.764 Y80.89 E1.87947
G1 X138.334 Y81.68 E1.91187
G1 X138.796 Y82.456 E1.9419
G1 X139.25 Y83.398 E1.97668
G1 X139.579 Y84.276 E2.00787
G1 X139.848 Y85.248 E2.04141
G1 X140.025 Y86.214 E2.07408
G1 X140.12 Y87.344 E2.11179
G1 X140.135 Y88.019 E2.13425
G1 X140.134 Y125.36 E3.37622
G1 X140.123 Y126.123 E3.4016
G1 X140.066 Y127.096 E3.43401
G1 X139.921 Y128.059 E3.46641
G1 X139.692 Y129.005 E3.49878
G1 X139.381 Y129.929 E3.5312
G1 X138.989 Y130.82 E3.56358
G1 X138.521 Y131.672 E3.59591
G1 X137.999 Y132.453 E3.62716
G1 X137.366 Y133.238 E3.6607
G1 X136.741 Y133.889 E3.69071
G1 X135.952 Y134.577 E3.72553
G1 X135.192 Y135.127 E3.75673
G1 X134.325 Y135.644 E3.79031
G1 X133.447 Y136.066 E3.82271
G1 X132.536 Y136.408 E3.85507
G1 X131.597 Y136.669 E3.88749
G1 X130.631 Y136.847 E3.92016
G1 X129.48 Y136.945 E3.95858
G1 X128.805 Y136.96 E3.98103
G1 X91.428 Y136.959 E5.2242
G1 X90.695 Y136.948 E5.24858
G1 X89.723 Y136.891 E5.28097
G1 X88.76 Y136.745 E5.31336
G1 X87.814 Y136.516 E5.34573
G1 X86.89 Y136.204 E5.37817
G1 X86 Y135.812 E5.41052
G1 X85.177 Y135.361 E5.44173
G1 X84.338 Y134.8 E5.4753
G1 X83.634 Y134.234 E5.50534
G1 X82.881 Y133.509 E5.54011
G1 X82.244 Y132.773 E5.57248
G1 X81.714 Y132.042 E5.60252
G1 X81.178 Y131.145 E5.63727
G1 X80.756 Y130.267 E5.66967
G1 X80.414 Y129.355 E5.70207
G1 X80.154 Y128.417 E5.73444
G1 X79.976 Y127.448 E5.76721
G1 X79.878 Y126.269 E5.80656
G1 X79.864 Y125.618 E5.82822
G1 X79.865 Y88.214 E7.07228
G1 X79.876 Y87.514 E7.09556
G1 X79.934 Y86.541 E7.12798
G1 X80.08 Y85.578 E7.16038
G1 X80.31 Y84.632 E7.19276
G1 X80.623 Y83.709 E7.22517
G1 X81.015 Y82.819 E7.25752
G1 X81.485 Y81.966 E7.28991
G1 X82.028 Y81.158 E7.32229
G1 X82.595 Y80.454 E7.35236
G1 X83.32 Y79.702 E7.3871
G0 X83.582 Y80.004
G1 X84.291 Y79.389 E7.41832
G1 X85.023 Y78.859 E7.44837
G1 X85.859 Y78.36 E7.48076
G1 X86.704 Y77.953 E7.51195
G1 X87.583 Y77.622 E7.54319
G1 X88.486 Y77.371 E7.57436
G1 X89.414 Y77.199 E7.60575
G1 X90.553 Y77.103 E7.64377
G1 X91.185 Y77.089 E7.6648
G1 X128.433 Y77.089 E8.90367
G1 X129.295 Y77.101 E8.93234
G1 X130.232 Y77.157 E8.96356
G1 X131.16 Y77.296 E8.99477
G1 X132.073 Y77.517 E9.02602
G1 X132.929 Y77.805 E9.05606
G1 X133.821 Y78.195 E9.08844
G1 X134.642 Y78.648 E9.11962
G1 X135.393 Y79.15 E9.14967
G1 X136.152 Y79.762 E9.1821
G1 X136.826 Y80.415 E9.21331
G1 X137.44 Y81.124 E9.24451
G1 X137.99 Y81.885 E9.27574
G1 X138.452 Y82.661 E9.30577
G1 X138.875 Y83.538 E9.33816
G1 X139.204 Y84.416 E9.36934
G1 X139.455 Y85.321 E9.40058
G1 X139.626 Y86.248 E9.43193
G1 X139.721 Y87.378 E9.46965
G1 X139.735 Y88.019 E9.49097
G1 X139.734 Y125.355 E10.73277
G1 X139.724 Y126.1 E10.75755
G1 X139.67 Y127.037 E10.78877
G1 X139.532 Y127.966 E10.82001
G1 X139.313 Y128.878 E10.8512
G1 X139.015 Y129.768 E10.88242
G1 X138.638 Y130.628 E10.91365
G1 X138.188 Y131.45 E10.94482
G1 X137.666 Y132.231 E10.97607
G1 X137.077 Y132.961 E11.00726
G1 X136.452 Y133.612 E11.03728
G1 X135.717 Y134.253 E11.06972
G1 X134.957 Y134.803 E11.10092
G1 X134.151 Y135.284 E11.13214
G1 X133.306 Y135.692 E11.16335
G1 X132.428 Y136.023 E11.19455
G1 X131.524 Y136.276 E11.22578
G1 X130.597 Y136.448 E11.25714
G1 X129.446 Y136.546 E11.29556
G1 X128.805 Y136.56 E11.31688
G1 X91.434 Y136.559 E12.55985
G1 X90.718 Y136.549 E12.58366
G1 X89.782 Y136.495 E12.61485
G1 X88.853 Y136.356 E12.64609
G1 X87.941 Y136.137 E12.67728
G1 X87.051 Y135.838 E12.70851
G1 X86.192 Y135.461 E12.73971
G1 X85.369 Y135.01 E12.77093
G1 X84.589 Y134.488 E12.80214
G1 X83.885 Y133.922 E12.83219
G1 X83.183 Y133.247 E12.86458
G1 X82.568 Y132.538 E12.89579
G1 X82.038 Y131.807 E12.92583
G1 X81.538 Y130.971 E12.95822
G1 X81.13 Y130.126 E12.98943
G1 X80.799 Y129.248 E13.02064
G1 X80.547 Y128.344 E13.05186
G1 X80.375 Y127.415 E13.08328
G1 X80.277 Y126.236 E13.12263
G1 X80.264 Y125.618 E13.14319
G1 X80.265 Y88.22 E14.38705
G1 X80.275 Y87.537 E14.40977
G1 X80.33 Y86.6 E14.44099
G1 X80.469 Y85.672 E14.4722
G1 X80.689 Y84.76 E14.5034
G1 X80.989 Y83.87 E14.53464
G1 X81.366 Y83.011 E14.56584
G1 X81.817 Y82.189 E14.59702
G1 X82.34 Y81.409 E14.62826
G1 X82.907 Y80.705 E14.65833
G1 X83.582 Y80.004 E14.69069
G0 X83.845 Y80.306
G1 X84.526 Y79.713 E14.72073
G1 X85.258 Y79.183 E14.75078
G1 X86.033 Y78.72 E14.78081
G1 X86.846 Y78.327 E14.81084
G1 X87.691 Y78.007 E14.8409
G1 X88.56 Y77.764 E14.87091
G1 X89.448 Y77.598 E14.90096
G1 X90.587 Y77.502 E14.93897
G1 X91.194 Y77.489 E14.95917
G1 X128.428 Y77.489 E16.19757
G1 X129.272 Y77.5 E16.22565
G1 X130.174 Y77.553 E16.2557
G1 X131.067 Y77.685 E16.28572
G1 X131.945 Y77.896 E16.31576
G1 X132.801 Y78.184 E16.3458
G1 X133.628 Y78.546 E16.37582
G1 X134.42 Y78.981 E16.40588
G1 X135.171 Y79.483 E16.43592
G1 X135.874 Y80.05 E16.46596
G1 X136.524 Y80.677 E16.496
G1 X137.116 Y81.359 E16.52604
G1 X137.646 Y82.09 E16.55607
G1 X138.108 Y82.866 E16.58611
G1 X138.501 Y83.679 E16.61614
G1 X138.819 Y84.524 E16.64617
G1 X139.062 Y85.394 E16.67621
G1 X139.227 Y86.282 E16.70625
G1 X139.322 Y87.412 E16.74397
G1 X139.335 Y88.019 E16.76416
G1 X139.334 Y125.35 E18.0058
G1 X139.325 Y126.077 E18.02998
G1 X139.274 Y126.979 E18.06003
G1 X139.143 Y127.873 E18.09008
G1 X138.934 Y128.751 E18.1201
G1 X138.648 Y129.608 E18.15015
G1 X138.287 Y130.436 E18.18019
G1 X137.855 Y131.228 E18.2102
G1 X137.354 Y131.98 E18.24025
G1 X136.788 Y132.684 E18.27029
G1 X136.163 Y133.335 E18.30031
G1 X135.482 Y133.929 E18.33037
G1 X134.751 Y134.46 E18.36042
G1 X133.977 Y134.924 E18.39043
G1 X133.164 Y135.318 E18.42048
G1 X132.32 Y135.638 E18.4505
G1 X131.45 Y135.883 E18.48056
G1 X130.563 Y136.049 E18.51058
G1 X129.412 Y136.147 E18.549
G1 X128.805 Y136.16 E18.56919
G1 X91.439 Y136.159 E19.81199
G1 X90.741 Y136.15 E19.83521
G1 X89.84 Y136.099 E19.86522
G1 X88.946 Y135.967 E19.89528
G1 X88.068 Y135.758 E19.9253
G1 X87.211 Y135.471 E19.95536
G1 X86.384 Y135.11 E19.98537
G1 X85.591 Y134.677 E20.01542
G1 X84.84 Y134.176 E20.04545
G1 X84.136 Y133.61 E20.07549
G1 X83.485 Y132.984 E20.10553
G1 X82.892 Y132.303 E20.13557
G1 X82.362 Y131.572 E20.1656
G1 X81.898 Y130.797 E20.19564
G1 X81.504 Y129.984 E20.22569
G1 X81.184 Y129.14 E20.25571
G1 X80.94 Y128.27 E20.28576
G1 X80.774 Y127.382 E20.31581
G1 X80.677 Y126.227 E20.35436
G1 X80.664 Y125.618 E20.37462
G1 X80.665 Y88.225 E21.61832
G1 X80.674 Y87.56 E21.64044
G1 X80.726 Y86.658 E21.67049
G1 X80.858 Y85.765 E21.70051
G1 X81.068 Y84.887 E21.73054
G1 X81.355 Y84.03 E21.7606
G1 X81.717 Y83.203 E21.79062
G1 X82.15 Y82.411 E21.82064
G1 X82.652 Y81.66 E21.85069
G1 X83.219 Y80.956 E21.88075
G1 X83.845 Y80.306 E21.91077
G1 F2400 E21.11077
;MESH:8-32_SelfTapTestPrint.STL
G0 F1800 X94.719 Y92.798
G0 X97.649 Y96.676
;TYPE:WALL-INNER
G1 F2400 E21.91077
G1 F1800 X97.244 Y96.709 E21.92428
G1 X96.796 Y96.673 E21.93923
G1 X96.366 Y96.562 E21.954
G1 X95.945 Y96.373 E21.96935
G1 X95.564 Y96.106 E21.98483
G1 X95.27 Y95.823 E21.9984
G1 X95 Y95.467 E22.01326
G1 X94.791 Y95.054 E22.02865
G1 X94.655 Y94.604 E22.04429
G1 X94.602 Y94.191 E22.05814
G1 X94.62 Y93.724 E22.07368
G1 X94.703 Y93.349 E22.08646
G1 X94.878 Y92.887 E22.10289
G1 X95.117 Y92.497 E22.1181
G1 X95.4 Y92.175 E22.13236
G1 X95.753 Y91.883 E22.1476
G1 X96.158 Y91.655 E22.16306
G1 X96.62 Y91.502 E22.17924
G1 X97.01 Y91.434 E22.19241
G1 X97.47 Y91.433 E22.20771
G1 X97.854 Y91.5 E22.22068
G1 X98.324 Y91.654 E22.23713
G1 X98.721 Y91.875 E22.25224
G1 X99.037 Y92.13 E22.26574
G1 X99.363 Y92.486 E22.2818
G1 X99.606 Y92.879 E22.29717
G1 X99.752 Y93.245 E22.31027
G1 X99.863 Y93.72 E22.3265
G1 X99.879 Y94.209 E22.34277
G1 X99.827 Y94.622 E22.35661
G1 X99.708 Y95.015 E22.37027
G1 X99.495 Y95.453 E22.38647
G1 X99.227 Y95.811 E22.40134
G1 X98.924 Y96.104 E22.41536
G1 X98.541 Y96.371 E22.43089
G1 X98.124 Y96.56 E22.44612
G1 X97.649 Y96.676 E22.46238
G1 F2400 E21.66238
G0 F1800 X99.36 Y95.932
G0 X101.492 Y95.943
G0 X103.624 Y96.722
G1 F2400 E22.46238
G1 F1800 X103.214 Y96.689 E22.47606
G1 X102.748 Y96.577 E22.492
G1 X102.321 Y96.385 E22.50758
G1 X101.935 Y96.118 E22.52319
G1 X101.632 Y95.823 E22.53725
G1 X101.359 Y95.461 E22.55233
G1 X101.159 Y95.065 E22.56709
G1 X101.023 Y94.629 E22.58228
G1 X100.971 Y94.213 E22.59622
G1 X100.985 Y93.777 E22.61073
G1 X101.079 Y93.298 E22.62697
G1 X101.247 Y92.874 E22.64214
G1 X101.482 Y92.494 E22.657
G1 X101.783 Y92.149 E22.67222
G1 X102.092 Y91.9 E22.68542
G1 X102.511 Y91.652 E22.70162
G1 X102.949 Y91.496 E22.71708
G1 X103.385 Y91.422 E22.73179
G1 X103.847 Y91.421 E22.74716
G1 X104.288 Y91.495 E22.76203
G1 X104.705 Y91.642 E22.77673
G1 X105.106 Y91.865 E22.792
G1 X105.455 Y92.149 E22.80696
G1 X105.753 Y92.481 E22.8218
G1 X105.992 Y92.867 E22.8369
G1 X106.144 Y93.245 E22.85045
G1 X106.244 Y93.67 E22.86497
G1 X106.273 Y94.133 E22.8804
G1 X106.219 Y94.632 E22.8971
G1 X106.099 Y95.017 E22.91051
G1 X105.904 Y95.42 E22.9254
G1 X105.645 Y95.785 E22.94028
G1 X105.312 Y96.115 E22.95588
G1 X104.957 Y96.36 E22.97022
G1 X104.507 Y96.573 E22.98678
G1 X104.032 Y96.687 E23.00303
G1 X103.624 Y96.722 E23.01665
G1 F2400 E22.21665
G0 F1800 X103.615 Y96.826
G0 X103.624 Y97.664
G0 X103.626 Y103.041
G1 F2400 E23.01665
G1 F1800 X103.229 Y103.006 E23.02991
G1 X102.805 Y102.903 E23.04442
G1 X102.356 Y102.713 E23.06063
G1 X101.973 Y102.445 E23.07618
G1 X101.675 Y102.156 E23.08999
G1 X101.439 Y101.841 E23.10308
G1 X101.221 Y101.425 E23.1187
G1 X101.086 Y100.995 E23.13369
G1 X101.035 Y100.588 E23.14733
G1 X101.049 Y100.116 E23.16304
G1 X101.143 Y99.688 E23.17761
G1 X101.305 Y99.281 E23.19218
G1 X101.53 Y98.912 E23.20656
G1 X101.85 Y98.554 E23.22253
G1 X102.128 Y98.332 E23.23436
G1 X102.54 Y98.088 E23.25029
G1 X102.966 Y97.937 E23.26532
G1 X103.396 Y97.865 E23.27982
G1 X103.851 Y97.863 E23.29495
G1 X104.308 Y97.951 E23.31043
G1 X104.689 Y98.083 E23.32384
G1 X105.074 Y98.3 E23.33854
G1 X105.434 Y98.595 E23.35402
G1 X105.697 Y98.892 E23.36722
G1 X105.936 Y99.278 E23.38232
G1 X106.081 Y99.64 E23.39529
G1 X106.192 Y100.109 E23.41132
G1 X106.207 Y100.579 E23.42696
G1 X106.156 Y100.998 E23.441
G1 X106.041 Y101.371 E23.45398
G1 X105.832 Y101.804 E23.46997
G1 X105.568 Y102.155 E23.48458
G1 X105.273 Y102.442 E23.49827
G1 X104.918 Y102.69 E23.51267
G1 X104.535 Y102.868 E23.52672
G1 X104.118 Y102.987 E23.54114
G1 X103.626 Y103.041 E23.5576
G1 F2400 E22.7576
G0 F1800 X103.618 Y103.142
G0 X101.54 Y102.276
G0 X99.313 Y102.27
G0 X97.69 Y102.986
G1 F2400 E23.5576
G1 F1800 X97.238 Y103.027 E23.5727
G1 X96.851 Y102.993 E23.58562
G1 X96.382 Y102.879 E23.60167
G1 X95.983 Y102.7 E23.61622
G1 X95.621 Y102.455 E23.63076
G1 X95.32 Y102.164 E23.64468
G1 X95.051 Y101.808 E23.65952
G1 X94.847 Y101.409 E23.67443
G1 X94.719 Y100.974 E23.68951
G1 X94.665 Y100.561 E23.70336
G1 X94.684 Y100.108 E23.71844
G1 X94.792 Y99.652 E23.73403
G1 X94.933 Y99.295 E23.7468
G1 X95.168 Y98.913 E23.76171
G1 X95.482 Y98.563 E23.77735
G1 X95.796 Y98.308 E23.79081
G1 X96.173 Y98.097 E23.80517
G1 X96.595 Y97.948 E23.82006
G1 X96.967 Y97.885 E23.83261
G1 X97.461 Y97.875 E23.84904
G1 X97.89 Y97.948 E23.86352
G1 X98.295 Y98.09 E23.87779
G1 X98.646 Y98.286 E23.89116
G1 X99.002 Y98.564 E23.90618
G1 X99.314 Y98.906 E23.92158
G1 X99.549 Y99.287 E23.93647
G1 X99.69 Y99.642 E23.94918
G1 X99.79 Y100.064 E23.9636
G1 X99.821 Y100.551 E23.97983
G1 X99.772 Y100.937 E23.99277
G1 X99.65 Y101.371 E24.00777
G1 X99.446 Y101.789 E24.02324
G1 X99.179 Y102.149 E24.03814
G1 X98.871 Y102.449 E24.05244
G1 X98.499 Y102.702 E24.06741
G1 X98.152 Y102.856 E24.08003
G1 X97.69 Y102.986 E24.096
G1 F2400 E23.296
G0 F1800 X98.335 Y102.884
G0 X97.246 Y103.204
G0 X97.253 Y104.119
G0 X97.683 Y109.302
G1 F2400 E24.096
G1 F1800 X97.244 Y109.339 E24.11065
G1 X96.862 Y109.308 E24.1234
G1 X96.408 Y109.2 E24.13892
G1 X95.982 Y108.999 E24.15459
G1 X95.642 Y108.763 E24.16835
G1 X95.372 Y108.504 E24.18079
G1 X95.103 Y108.149 E24.19561
G1 X94.908 Y107.768 E24.20984
G1 X94.78 Y107.333 E24.22493
G1 X94.73 Y106.943 E24.238
G1 X94.747 Y106.499 E24.25278
G1 X94.824 Y106.146 E24.2648
G1 X94.992 Y105.7 E24.28065
G1 X95.219 Y105.327 E24.29517
G1 X95.521 Y104.99 E24.31022
G1 X95.832 Y104.741 E24.32347
G1 X96.193 Y104.536 E24.33728
G1 X96.605 Y104.389 E24.35183
G1 X97.022 Y104.32 E24.36589
G1 X97.455 Y104.318 E24.38029
G1 X97.874 Y104.388 E24.39442
G1 X98.323 Y104.556 E24.41037
G1 X98.614 Y104.719 E24.42146
G1 X98.96 Y104.99 E24.43608
G1 X99.258 Y105.319 E24.45084
G1 X99.464 Y105.647 E24.46372
G1 X99.63 Y106.042 E24.47797
G1 X99.737 Y106.493 E24.49339
G1 X99.752 Y106.961 E24.50896
G1 X99.71 Y107.303 E24.52043
G1 X99.59 Y107.725 E24.53502
G1 X99.387 Y108.143 E24.55047
G1 X99.134 Y108.482 E24.56454
G1 X98.842 Y108.763 E24.57802
G1 X98.499 Y109.001 E24.59191
G1 X98.132 Y109.175 E24.60542
G1 X97.683 Y109.302 E24.62093
G1 F2400 E23.82093
G0 F1800 X99.267 Y108.603
G0 X101.592 Y108.619
G0 X103.624 Y109.351
G1 F2400 E24.62093
G1 F1800 X103.185 Y109.316 E24.63558
G1 X102.784 Y109.211 E24.64937
G1 X102.393 Y109.036 E24.66362
G1 X102.035 Y108.795 E24.67797
G1 X101.726 Y108.501 E24.69216
G1 X101.495 Y108.188 E24.7051
G1 X101.299 Y107.817 E24.71905
G1 X101.148 Y107.364 E24.73493
G1 X101.098 Y106.965 E24.74831
G1 X101.113 Y106.501 E24.76375
G1 X101.202 Y106.087 E24.77783
G1 X101.36 Y105.691 E24.79201
G1 X101.592 Y105.319 E24.8066
G1 X101.851 Y105.021 E24.81973
G1 X102.198 Y104.732 E24.83475
G1 X102.571 Y104.523 E24.84897
G1 X102.982 Y104.377 E24.86347
G1 X103.4 Y104.307 E24.87757
G1 X103.84 Y104.305 E24.89221
G1 X104.256 Y104.376 E24.90624
G1 X104.707 Y104.545 E24.92226
G1 X104.998 Y104.706 E24.93332
G1 X105.352 Y104.984 E24.94829
G1 X105.648 Y105.314 E24.96304
G1 X105.878 Y105.68 E24.97741
G1 X106.037 Y106.078 E24.99167
G1 X106.127 Y106.493 E25.00579
G1 X106.146 Y106.959 E25.0213
G1 X106.094 Y107.355 E25.03459
G1 X105.98 Y107.73 E25.04763
G1 X105.798 Y108.105 E25.06149
G1 X105.527 Y108.487 E25.07707
G1 X105.227 Y108.774 E25.09088
G1 X104.888 Y109.008 E25.10458
G1 X104.469 Y109.209 E25.12003
G1 X104.007 Y109.319 E25.13583
G1 X103.624 Y109.351 E25.14861
G1 F2400 E24.34861
G0 F1800 X103.147 Y109.41
G0 X103.625 Y109.531
G0 X103.636 Y110.548
G0 X103.624 Y115.666
G1 F2400 E25.14861
G1 F1800 X103.196 Y115.632 E25.16289
G1 X102.799 Y115.527 E25.17655
G1 X102.419 Y115.356 E25.19041
G1 X102.057 Y115.107 E25.20502
G1 X101.775 Y114.832 E25.21812
G1 X101.547 Y114.529 E25.23074
G1 X101.337 Y114.128 E25.24579
G1 X101.224 Y113.769 E25.25831
G1 X101.162 Y113.34 E25.27273
G1 X101.175 Y112.937 E25.28614
G1 X101.253 Y112.533 E25.29982
G1 X101.414 Y112.099 E25.31522
G1 X101.643 Y111.734 E25.32955
G1 X101.89 Y111.448 E25.34212
G1 X102.198 Y111.194 E25.3554
G1 X102.598 Y110.956 E25.37088
G1 X103.046 Y110.81 E25.38655
G1 X103.405 Y110.749 E25.39866
G1 X103.834 Y110.747 E25.41293
