;FLAVOR:Marlin
;TIME:2542
;Filament used: 2.49376m
;Layer height: 0.2
;MINX:75.97
;MINY:75.361
;MINZ:0.2
;MAXX:144.03
;MAXY:143.423
;MAXZ:9.8
;TARGET_MACHINE.NAME:Creality Ender-3 V3 SE
;Generated with Cura_SteamEngine 5.6.0
M140 S60
M105
M190 S60
M104 S220
M105
M109 S220
M82 ;absolute extrusion mode
M220 S100 ;Reset Feedrate
M221 S100 ;Reset Flowrate

G28 ;Home

M420 S1; Enable mesh leveling

G92 E0 ;Reset Extruder
G1 Z2.0 F3000 ;Move Z Axis up
G1 X10.1 Y20 Z0.28 F5000.0 ;Move to start position
M109 S[material_print_temperature_layer_0]
G1 X10.1 Y145.0 Z0.28 F1500.0 E15 ;Draw the first line
G1 X10.4 Y145.0 Z0.28 F5000.0 ;Move to side a little
G1 X10.4 Y20 Z0.28 F1500.0 E30 ;Draw the second line
G92 E0  ;Reset Extruder
G1 E-1.0000 F1800 ;Retract a bit
G1 Z2.0 F3000 ;Move Z Axis up
G1 E0.0000 F1800 

G92 E0
G92 E0
G1 F2400 E-0.8
;LAYER_COUNT:49
;LAYER:0
M107
G0 F1800 X85.271 Y86.018 Z0.2
;TYPE:SKIRT
G1 F2400 E0
G1 F1800 X86.438 Y84.851 E0.05489
G1 X86.94 Y84.364 E0.07815
G1 X87.485 Y83.873 E0.10255
G1 X88.142 Y83.324 E0.13103
G1 X89.619 Y82.142 E0.19395
G1 X90.415 Y81.565 E0.22665
G1 X91.809 Y80.649 E0.28213
G1 X92.653 Y80.116 E0.31533
G1 X93.275 Y79.755 E0.33925
G1 X93.973 Y79.382 E0.36557
G1 X95.001 Y78.86 E0.40392
G1 X95.818 Y78.46 E0.43417
G1 X96.508 Y78.152 E0.4593
G1 X97.225 Y77.865 E0.48499
G1 X99.02 Y77.188 E0.5488
G1 X99.777 Y76.935 E0.57534
G1 X100.429 Y76.746 E0.59792
G1 X101.826 Y76.369 E0.64605
G1 X102.555 Y76.186 E0.67105
G1 X103.291 Y76.028 E0.69609
G1 X103.97 Y75.91 E0.71901
G1 X105.401 Y75.684 E0.76719
G1 X106.079 Y75.588 E0.78997
G1 X106.788 Y75.513 E0.81368
G1 X107.282 Y75.478 E0.83015
G1 X108.85 Y75.394 E0.88238
G1 X109.61 Y75.366 E0.90767
G1 X110.234 Y75.361 E0.92843
G1 X110.807 Y75.379 E0.9475
G1 X112.508 Y75.466 E1.00415
G1 X113.213 Y75.514 E1.02765
G1 X114.055 Y75.607 E1.05582
G1 X115.98 Y75.903 E1.1206
G1 X116.657 Y76.019 E1.14345
G1 X117.46 Y76.187 E1.17073
G1 X118.182 Y76.371 E1.19552
G1 X120.044 Y76.883 E1.25974
G1 X120.715 Y77.092 E1.28312
G1 X121.307 Y77.302 E1.30401
G1 X122.754 Y77.856 E1.35555
G1 X123.468 Y78.141 E1.38112
G1 X124.201 Y78.467 E1.4078
G1 X124.848 Y78.785 E1.43178
G1 X126.029 Y79.387 E1.47586
G1 X126.671 Y79.727 E1.50003
G1 X127.163 Y80.005 E1.51882
G1 X127.696 Y80.331 E1.5396
G1 X128.916 Y81.119 E1.58791
G1 X129.697 Y81.641 E1.61915
G1 X130.317 Y82.09 E1.64461
G1 X130.881 Y82.533 E1.66847
G1 X131.901 Y83.362 E1.71218
G1 X132.486 Y83.851 E1.73754
G1 X132.92 Y84.232 E1.75675
G1 X133.375 Y84.665 E1.77764
G1 X134.542 Y85.832 E1.83254
G1 X135.029 Y86.334 E1.8558
G1 X135.52 Y86.879 E1.8802
G1 X136.069 Y87.536 E1.90867
G1 X137.251 Y89.013 E1.97159
G1 X137.837 Y89.822 E2.00482
G1 X138.895 Y91.439 E2.06909
G1 X139.246 Y91.995 E2.09096
G1 X139.599 Y92.597 E2.11417
G1 X139.988 Y93.327 E2.14168
G1 X140.885 Y95.108 E2.20801
G1 X141.232 Y95.876 E2.23604
G1 X141.552 Y96.679 E2.26479
G1 X142.207 Y98.416 E2.32653
G1 X142.429 Y99.071 E2.34953
G1 X142.616 Y99.709 E2.37164
G1 X143.017 Y101.193 E2.42277
G1 X143.2 Y101.918 E2.44764
G1 X143.366 Y102.697 E2.47413
G1 X143.512 Y103.545 E2.50275
G1 X143.789 Y105.363 E2.56392
G1 X143.88 Y106.194 E2.59172
G1 X143.927 Y106.889 E2.61489
G1 X143.995 Y108.155 E2.65706
G1 X144.027 Y109.011 E2.68555
G1 X144.03 Y109.722 E2.7092
G1 X144.015 Y110.177 E2.72434
G1 X143.93 Y111.832 E2.77946
G1 X143.882 Y112.557 E2.80362
G1 X143.807 Y113.286 E2.828
G1 X143.708 Y113.998 E2.85191
G1 X143.522 Y115.18 E2.89171
G1 X143.362 Y116.112 E2.92316
G1 X143.163 Y117.022 E2.95414
G1 X142.682 Y118.833 E3.01646
G1 X142.476 Y119.552 E3.04134
G1 X142.274 Y120.186 E3.06347
G1 X142.056 Y120.791 E3.08486
G1 X141.536 Y122.149 E3.13322
G1 X141.25 Y122.864 E3.15884
G1 X140.869 Y123.707 E3.18961
G1 X140.005 Y125.422 E3.25348
G1 X139.678 Y126.043 E3.27682
G1 X139.365 Y126.595 E3.29793
G1 X139.058 Y127.095 E3.31744
G1 X138.282 Y128.297 E3.36503
G1 X137.746 Y129.099 E3.39711
G1 X137.199 Y129.846 E3.4279
G1 X135.997 Y131.338 E3.49163
G1 X135.574 Y131.845 E3.51359
G1 X135.193 Y132.275 E3.5327
G1 X134.767 Y132.724 E3.55328
G1 X133.638 Y133.858 E3.60651
G1 X133.075 Y134.408 E3.63268
G1 X132.376 Y135.033 E3.66387
G1 X131.089 Y136.086 E3.71918
G1 X130.299 Y136.707 E3.7526
G1 X129.687 Y137.153 E3.77779
G1 X129.129 Y137.528 E3.80015
G1 X127.934 Y138.302 E3.8475
G1 X127.356 Y138.664 E3.87019
G1 X126.868 Y138.953 E3.88905
G1 X126.298 Y139.261 E3.9106
G1 X124.848 Y140.002 E3.96476
G1 X124.19 Y140.324 E3.98912
G1 X123.478 Y140.64 E4.01503
G1 X122.738 Y140.936 E4.04154
G1 X120.969 Y141.603 E4.10442
G1 X120.042 Y141.905 E4.13685
G1 X118.176 Y142.417 E4.20121
G1 X117.47 Y142.595 E4.22542
G1 X116.702 Y142.759 E4.25154
G1 X115.903 Y142.898 E4.27852
G1 X114.693 Y143.087 E4.31925
G1 X113.91 Y143.198 E4.34555
G1 X113.022 Y143.285 E4.37523
G1 X111.082 Y143.396 E4.43986
G1 X110.385 Y143.421 E4.46306
G1 X109.655 Y143.423 E4.48734
G1 X108.946 Y143.397 E4.51093
G1 X107.563 Y143.324 E4.557
G1 X106.824 Y143.274 E4.58163
G1 X106.112 Y143.201 E4.60544
G1 X105.557 Y143.126 E4.62406
G1 X104.056 Y142.89 E4.6746
G1 X103.286 Y142.757 E4.70059
G1 X102.388 Y142.56 E4.73117
G1 X100.557 Y142.076 E4.79416
G1 X99.858 Y141.876 E4.81834
G1 X99.279 Y141.693 E4.83854
G1 X98.671 Y141.477 E4.86
G1 X97.245 Y140.931 E4.91078
G1 X96.527 Y140.644 E4.9365
G1 X95.679 Y140.261 E4.96745
G1 X93.964 Y139.396 E5.03134
G1 X93.352 Y139.073 E5.05435
G1 X92.713 Y138.708 E5.07883
G1 X92.045 Y138.291 E5.10502
G1 X90.409 Y137.218 E5.17009
G1 X89.845 Y136.821 E5.19303
G1 X89.392 Y136.471 E5.21207
G1 X88.081 Y135.413 E5.2681
G1 X87.464 Y134.9 E5.29479
G1 X86.795 Y134.29 E5.32491
G1 X85.61 Y133.109 E5.38055
G1 X84.972 Y132.452 E5.41101
G1 X84.546 Y131.987 E5.43198
G1 X84.166 Y131.538 E5.45155
G1 X83.27 Y130.437 E5.49876
G1 X82.705 Y129.72 E5.52912
G1 X82.229 Y129.066 E5.55603
G1 X81.922 Y128.611 E5.57428
G1 X81.092 Y127.331 E5.62502
G1 X80.726 Y126.747 E5.64795
G1 X80.422 Y126.229 E5.66792
G1 X80.126 Y125.68 E5.68867
G1 X79.396 Y124.25 E5.74207
G1 X79.075 Y123.596 E5.7663
G1 X78.704 Y122.754 E5.7969
G1 X78.007 Y120.959 E5.86095
G1 X77.756 Y120.268 E5.8854
G1 X77.567 Y119.704 E5.90518
G1 X77.383 Y119.077 E5.92692
G1 X76.983 Y117.601 E5.97778
G1 X76.803 Y116.894 E6.00205
G1 X76.626 Y116.058 E6.03047
G1 X76.522 Y115.454 E6.05085
G1 X76.207 Y113.384 E6.12049
G1 X76.107 Y112.403 E6.15329
G1 X75.997 Y110.467 E6.21779
G1 X75.972 Y109.766 E6.24112
G1 X75.97 Y109.043 E6.26516
G1 X75.995 Y108.353 E6.28813
G1 X76.06 Y107.108 E6.32959
G1 X76.119 Y106.223 E6.35909
G1 X76.173 Y105.645 E6.3784
G1 X76.25 Y105.067 E6.3978
G1 X76.473 Y103.628 E6.44623
G1 X76.637 Y102.674 E6.47842
G1 X76.836 Y101.764 E6.50941
G1 X77.317 Y99.953 E6.57173
G1 X77.523 Y99.234 E6.5966
G1 X77.725 Y98.6 E6.61874
G1 X77.943 Y97.995 E6.64012
G1 X78.462 Y96.639 E6.68842
G1 X78.749 Y95.921 E6.71413
G1 X79.132 Y95.073 E6.74508
G1 X79.994 Y93.364 E6.80874
G1 X80.323 Y92.741 E6.83218
G1 X80.687 Y92.104 E6.85658
G1 X80.952 Y91.674 E6.87338
G1 X81.753 Y90.437 E6.92239
G1 X82.257 Y89.685 E6.9525
G1 X82.707 Y89.065 E6.97798
G1 X83.069 Y88.6 E6.99758
G1 X83.971 Y87.486 E7.04526
G1 X84.465 Y86.897 E7.07083
G1 X84.837 Y86.477 E7.08949
G1 X85.271 Y86.018 E7.1105
G0 X85.554 Y86.301
G1 X86.716 Y85.138 E7.16518
G1 X87.208 Y84.661 E7.18797
G1 X87.741 Y84.18 E7.21185
G1 X88.392 Y83.636 E7.24007
G1 X89.854 Y82.466 E7.30235
G1 X90.635 Y81.899 E7.33445
G1 X92.022 Y80.987 E7.38966
G1 X92.854 Y80.462 E7.42238
G1 X93.463 Y80.108 E7.44581
G1 X94.154 Y79.739 E7.47186
G1 X95.177 Y79.219 E7.51003
G1 X95.981 Y78.825 E7.53981
G1 X96.657 Y78.523 E7.56444
G1 X97.366 Y78.239 E7.58984
G1 X99.147 Y77.567 E7.65315
G1 X99.888 Y77.319 E7.67914
G1 X100.533 Y77.132 E7.70148
G1 X101.924 Y76.757 E7.74939
G1 X102.639 Y76.577 E7.77392
G1 X103.36 Y76.422 E7.79845
G1 X104.032 Y76.305 E7.82113
G1 X105.457 Y76.08 E7.86912
G1 X106.121 Y75.986 E7.89142
G1 X106.817 Y75.912 E7.9147
G1 X107.303 Y75.877 E7.93091
G1 X108.865 Y75.794 E7.98293
G1 X109.613 Y75.766 E8.00783
G1 X110.222 Y75.761 E8.02808
G1 X110.786 Y75.778 E8.04685
G1 X112.481 Y75.865 E8.1033
G1 X113.169 Y75.912 E8.12624
G1 X114.011 Y76.005 E8.15441
G1 X115.913 Y76.297 E8.21841
G1 X116.575 Y76.41 E8.24075
G1 X117.361 Y76.575 E8.26746
G1 X118.076 Y76.757 E8.292
G1 X119.925 Y77.265 E8.35578
G1 X120.581 Y77.469 E8.37863
G1 X121.164 Y77.676 E8.39921
G1 X122.606 Y78.228 E8.45056
G1 X123.306 Y78.507 E8.47562
G1 X124.025 Y78.826 E8.50179
G1 X124.666 Y79.141 E8.52554
G1 X125.842 Y79.741 E8.56945
G1 X126.474 Y80.075 E8.59323
G1 X126.954 Y80.346 E8.61156
G1 X127.479 Y80.667 E8.63203
G1 X128.694 Y81.452 E8.68014
G1 X129.462 Y81.965 E8.71086
G1 X130.07 Y82.405 E8.73582
G1 X130.629 Y82.844 E8.75946
G1 X131.645 Y83.669 E8.80299
G1 X132.222 Y84.151 E8.828
G1 X132.644 Y84.522 E8.84668
G1 X133.092 Y84.948 E8.86725
G1 X134.255 Y86.11 E8.92193
G1 X134.732 Y86.602 E8.94472
G1 X135.213 Y87.135 E8.9686
G1 X135.757 Y87.786 E8.99681
G1 X136.927 Y89.248 E9.0591
G1 X137.502 Y90.041 E9.09167
G1 X138.557 Y91.653 E9.15575
G1 X138.901 Y92.197 E9.17716
G1 X139.246 Y92.785 E9.19983
G1 X139.631 Y93.507 E9.22705
G1 X140.52 Y95.273 E9.29281
G1 X140.867 Y96.041 E9.32084
G1 X141.178 Y96.82 E9.34874
G1 X141.828 Y98.545 E9.41005
G1 X142.045 Y99.184 E9.43249
G1 X142.23 Y99.813 E9.4543
G1 X142.629 Y101.291 E9.50522
G1 X142.809 Y102.002 E9.52961
G1 X142.972 Y102.765 E9.55556
G1 X143.117 Y103.605 E9.58391
G1 X143.391 Y105.407 E9.64454
G1 X143.481 Y106.221 E9.67178
G1 X143.528 Y106.91 E9.69475
G1 X143.595 Y108.17 E9.73671
G1 X143.627 Y109.013 E9.76477
G1 X143.63 Y109.709 E9.78792
G1 X143.616 Y110.156 E9.8028
G1 X143.531 Y111.806 E9.85775
G1 X143.484 Y112.516 E9.88141
G1 X143.411 Y113.231 E9.90532
G1 X143.313 Y113.936 E9.92899
G1 X143.128 Y115.112 E9.96859
G1 X142.971 Y116.027 E9.99947
G1 X142.776 Y116.919 E10.02983
G1 X142.297 Y118.723 E10.09191
G1 X142.095 Y119.431 E10.1164
G1 X141.898 Y120.05 E10.13801
G1 X141.682 Y120.648 E10.15915
G1 X141.164 Y122.001 E10.20734
G1 X140.885 Y122.7 E10.23237
G1 X140.512 Y123.527 E10.26255
G1 X139.651 Y125.236 E10.3262
G1 X139.33 Y125.846 E10.34912
G1 X139.024 Y126.386 E10.36977
G1 X138.722 Y126.878 E10.38897
G1 X137.949 Y128.075 E10.43636
G1 X137.423 Y128.863 E10.46787
G1 X136.887 Y129.595 E10.49805
G1 X135.69 Y131.082 E10.56154
G1 X135.275 Y131.58 E10.5831
G1 X134.903 Y132 E10.60176
G1 X134.484 Y132.442 E10.62202
G1 X133.359 Y133.572 E10.67505
G1 X132.808 Y134.11 E10.70066
G1 X132.123 Y134.723 E10.73124
G1 X130.841 Y135.772 E10.78633
G1 X130.064 Y136.384 E10.81923
G1 X129.464 Y136.821 E10.84392
G1 X128.912 Y137.192 E10.86604
G1 X127.722 Y137.963 E10.9132
G1 X127.152 Y138.32 E10.93557
G1 X126.678 Y138.601 E10.9539
G1 X126.116 Y138.905 E10.97515
G1 X124.672 Y139.643 E11.02908
G1 X124.027 Y139.959 E11.05297
G1 X123.33 Y140.269 E11.07834
G1 X122.597 Y140.562 E11.1046
G1 X120.845 Y141.223 E11.16688
G1 X119.936 Y141.519 E11.19868
G1 X118.078 Y142.029 E11.26276
G1 X117.386 Y142.204 E11.2865
G1 X116.633 Y142.365 E11.31211
G1 X115.841 Y142.503 E11.33885
G1 X114.637 Y142.691 E11.37938
G1 X113.871 Y142.8 E11.40512
G1 X112.999 Y142.886 E11.43426
G1 X111.067 Y142.996 E11.49862
G1 X110.384 Y143.021 E11.52135
G1 X109.669 Y143.023 E11.54513
G1 X108.967 Y142.998 E11.5685
G1 X107.59 Y142.925 E11.61436
G1 X106.864 Y142.876 E11.63856
G1 X106.166 Y142.805 E11.6619
G1 X105.619 Y142.731 E11.68026
G1 X104.124 Y142.496 E11.73059
G1 X103.372 Y142.366 E11.75597
G1 X102.49 Y142.173 E11.786
G1 X100.667 Y141.691 E11.84872
G1 X99.979 Y141.495 E11.87251
G1 X99.413 Y141.316 E11.89226
G1 X98.814 Y141.103 E11.9134
G1 X97.393 Y140.559 E11.96401
G1 X96.691 Y140.279 E11.98915
G1 X95.859 Y139.904 E12.0195
G1 X94.151 Y139.042 E12.08313
G1 X93.539 Y138.719 E12.10615
G1 X92.924 Y138.368 E12.1297
G1 X92.264 Y137.957 E12.15556
G1 X90.639 Y136.891 E12.2202
G1 X90.089 Y136.504 E12.24257
G1 X89.643 Y136.16 E12.2613
G1 X88.337 Y135.106 E12.31712
G1 X87.734 Y134.604 E12.34322
G1 X87.065 Y133.994 E12.37333
G1 X85.897 Y132.83 E12.42818
G1 X85.267 Y132.182 E12.45824
G1 X84.851 Y131.728 E12.47872
G1 X84.476 Y131.286 E12.498
G1 X83.584 Y130.189 E12.54502
G1 X83.028 Y129.484 E12.57488
G1 X82.561 Y128.843 E12.60126
G1 X82.258 Y128.393 E12.61931
G1 X81.431 Y127.118 E12.66985
G1 X81.071 Y126.544 E12.69239
G1 X80.774 Y126.039 E12.71187
G1 X80.482 Y125.498 E12.73232
G1 X79.755 Y124.073 E12.78553
G1 X79.441 Y123.435 E12.80918
G1 X79.077 Y122.609 E12.8392
G1 X78.383 Y120.822 E12.90296
G1 X78.135 Y120.141 E12.92707
G1 X77.951 Y119.591 E12.94636
G1 X77.769 Y118.973 E12.96778
G1 X77.371 Y117.502 E13.01847
G1 X77.191 Y116.795 E13.04273
G1 X77.02 Y115.99 E13.07011
G1 X76.917 Y115.394 E13.09022
G1 X76.605 Y113.343 E13.15922
G1 X76.506 Y112.38 E13.19142
G1 X76.397 Y110.452 E13.25565
G1 X76.372 Y109.765 E13.27852
G1 X76.37 Y109.057 E13.30206
G1 X76.394 Y108.374 E13.32479
G1 X76.459 Y107.134 E13.36609
G1 X76.517 Y106.26 E13.39523
G1 X76.57 Y105.697 E13.41404
G1 X76.645 Y105.128 E13.43312
G1 X76.867 Y103.696 E13.48132
G1 X77.028 Y102.759 E13.51294
G1 X77.223 Y101.867 E13.54331
G1 X77.702 Y100.063 E13.60539
G1 X77.904 Y99.355 E13.62988
G1 X78.101 Y98.736 E13.65149
G1 X78.317 Y98.138 E13.67263
G1 X78.834 Y96.787 E13.72075
G1 X79.114 Y96.085 E13.74588
G1 X79.489 Y95.253 E13.77624
G1 X80.348 Y93.55 E13.83968
G1 X80.67 Y92.939 E13.86265
G1 X81.027 Y92.314 E13.88659
G1 X81.288 Y91.891 E13.90312
G1 X82.085 Y90.66 E13.95189
G1 X82.581 Y89.92 E13.98152
G1 X83.022 Y89.311 E14.00653
G1 X83.38 Y88.852 E14.02589
G1 X84.278 Y87.743 E14.07335
G1 X84.764 Y87.162 E14.09855
G1 X85.127 Y86.752 E14.11676
G1 X85.554 Y86.301 E14.13742
G0 X85.837 Y86.584
G1 X86.994 Y85.425 E14.19189
G1 X87.476 Y84.958 E14.21421
G1 X87.997 Y84.487 E14.23757
G1 X88.642 Y83.948 E14.26553
G1 X90.089 Y82.79 E14.32717
G1 X90.855 Y82.233 E14.35867
G1 X92.235 Y81.325 E14.41361
G1 X93.055 Y80.808 E14.44585
G1 X93.651 Y80.461 E14.46879
G1 X94.335 Y80.096 E14.49458
G1 X95.353 Y79.578 E14.53257
G1 X96.144 Y79.19 E14.56187
G1 X96.806 Y78.894 E14.58599
G1 X97.507 Y78.613 E14.61111
G1 X99.274 Y77.946 E14.67393
G1 X100 Y77.703 E14.69939
G1 X100.637 Y77.518 E14.72145
G1 X102.022 Y77.145 E14.76916
G1 X102.723 Y76.968 E14.79321
G1 X103.429 Y76.816 E14.81723
G1 X104.094 Y76.7 E14.83968
G1 X105.513 Y76.476 E14.88746
G1 X106.164 Y76.384 E14.90933
G1 X106.846 Y76.311 E14.93214
G1 X107.324 Y76.276 E14.94808
G1 X108.88 Y76.194 E14.9999
G1 X109.616 Y76.166 E15.0244
G1 X110.21 Y76.161 E15.04416
G1 X110.765 Y76.177 E15.06263
G1 X112.454 Y76.264 E15.11888
G1 X113.125 Y76.31 E15.14125
G1 X113.967 Y76.403 E15.16942
G1 X115.846 Y76.691 E15.23265
G1 X116.493 Y76.801 E15.25448
G1 X117.262 Y76.963 E15.28061
G1 X117.97 Y77.143 E15.30491
G1 X119.806 Y77.647 E15.36824
G1 X120.447 Y77.846 E15.39056
G1 X121.021 Y78.05 E15.41082
G1 X122.458 Y78.6 E15.462
G1 X123.144 Y78.873 E15.48655
G1 X123.849 Y79.185 E15.5122
G1 X124.484 Y79.497 E15.53573
G1 X125.655 Y80.095 E15.57946
G1 X126.278 Y80.424 E15.60289
G1 X126.745 Y80.687 E15.62072
G1 X127.262 Y81.003 E15.64087
G1 X128.472 Y81.785 E15.68879
G1 X129.227 Y82.289 E15.71898
G1 X129.835 Y82.729 E15.74394
G1 X130.377 Y83.155 E15.76687
G1 X131.389 Y83.976 E15.81022
G1 X131.958 Y84.451 E15.83487
G1 X132.368 Y84.812 E15.85304
G1 X132.809 Y85.231 E15.87327
G1 X133.968 Y86.388 E15.92774
G1 X134.435 Y86.87 E15.95006
G1 X134.906 Y87.391 E15.97342
G1 X135.445 Y88.036 E16.00138
G1 X136.603 Y89.483 E16.06302
G1 X137.167 Y90.26 E16.09495
G1 X138.219 Y91.866 E16.15881
G1 X138.556 Y92.4 E16.17981
G1 X138.893 Y92.974 E16.20195
G1 X139.274 Y93.687 E16.22884
G1 X140.155 Y95.438 E16.29403
G1 X140.502 Y96.206 E16.32206
G1 X140.804 Y96.961 E16.34911
G1 X141.449 Y98.674 E16.40999
G1 X141.661 Y99.297 E16.43188
G1 X141.844 Y99.917 E16.45338
G1 X142.241 Y101.389 E16.50408
G1 X142.418 Y102.086 E16.528
G1 X142.578 Y102.833 E16.55341
G1 X142.722 Y103.665 E16.5815
G1 X142.993 Y105.451 E16.64158
G1 X143.082 Y106.248 E16.66825
G1 X143.129 Y106.931 E16.69102
G1 X143.195 Y108.185 E16.73279
G1 X143.227 Y109.015 E16.76041
G1 X143.23 Y109.697 E16.7831
G1 X143.217 Y110.135 E16.79767
G1 X143.132 Y111.78 E16.85246
G1 X143.086 Y112.476 E16.87566
G1 X143.015 Y113.176 E16.89906
G1 X142.918 Y113.874 E16.9225
