;FLAVOR:Marlin
;TIME:4931
;Filament used: 4.59629m
;Layer height: 0.2
;MINX:45.144
;MINY:80.531
;MINZ:0.2
;MAXX:185.673
;MAXY:162.34
;MAXZ:9.8
;TARGET_MACHINE.NAME:Creality Ender-3 V3 SE
;Generated with Cura_SteamEngine 5.6.0
M140 S60
M105
M190 S60
M104 S220
M105
M109 S220
M82 ;absolute extrusion mode
M220 S100 ;Reset Feedrate
M221 S100 ;Reset Flowrate

G28 ;Home

M420 S1; Enable mesh leveling

G92 E0 ;Reset Extruder
G1 Z2.0 F3000 ;Move Z Axis up
G1 X10.1 Y20 Z0.28 F5000.0 ;Move to start position
M109 S[material_print_temperature_layer_0]
G1 X10.1 Y145.0 Z0.28 F1500.0 E15 ;Draw the first line
G1 X10.4 Y145.0 Z0.28 F5000.0 ;Move to side a little
G1 X10.4 Y20 Z0.28 F1500.0 E30 ;Draw the second line
G92 E0  ;Reset Extruder
G1 E-1.0000 F1800 ;Retract a bit
G1 Z2.0 F3000 ;Move Z Axis up
G1 E0.0000 F1800 

G92 E0
G92 E0
G1 F2400 E-0.8
;LAYER_COUNT:49
;LAYER:0
M107
G0 F1800 X60.477 Y94.361 Z0.2
;TYPE:SKIRT
G1 F2400 E0
G1 F1800 X61.326 Y93.825 E0.03339
G1 X61.978 Y93.446 E0.05848
G1 X62.712 Y93.059 E0.08608
G1 X64.296 Y92.266 E0.14499
G1 X64.909 Y91.982 E0.16746
G1 X65.476 Y91.749 E0.18785
G1 X66.722 Y91.268 E0.23228
G1 X67.591 Y90.947 E0.26309
G1 X68.321 Y90.708 E0.28864
G1 X68.992 Y90.518 E0.31183
G1 X70.192 Y90.196 E0.35315
G1 X70.924 Y90.012 E0.37826
G1 X71.633 Y89.859 E0.40238
G1 X72.342 Y89.734 E0.42633
G1 X73.456 Y89.558 E0.46384
G1 X74.358 Y89.429 E0.49414
G1 X75.1 Y89.351 E0.51896
G1 X76.943 Y89.243 E0.58036
G1 X77.782 Y89.212 E0.60829
G1 X78.506 Y89.21 E0.63237
G1 X79.215 Y89.236 E0.65597
G1 X80.332 Y89.294 E0.69317
G1 X81.237 Y89.354 E0.72333
G1 X81.906 Y89.419 E0.74569
G1 X84.485 Y89.755 E0.83219
G1 X87.006 Y90.02 E0.9165
G1 X89.491 Y90.208 E0.99939
G1 X92.055 Y90.329 E1.08476
G1 X94.523 Y90.377 E1.16687
G1 X97.054 Y90.353 E1.25105
G1 X99.585 Y90.258 E1.33529
G1 X102.096 Y90.093 E1.41899
G1 X104.562 Y89.861 E1.50137
G1 X107.117 Y89.547 E1.58699
G1 X109.57 Y89.174 E1.66951
G1 X112.072 Y88.724 E1.75407
G1 X114.507 Y88.212 E1.83683
G1 X116.952 Y87.626 E1.92045
G1 X119.379 Y86.971 E2.00406
G1 X121.793 Y86.243 E2.08792
G1 X124.191 Y85.448 E2.17195
G1 X126.587 Y84.577 E2.25674
G1 X128.891 Y83.665 E2.33916
G1 X131.216 Y82.668 E2.4233
G1 X132.003 Y82.305 E2.45212
G1 X133.128 Y81.808 E2.49303
G1 X133.605 Y81.612 E2.51018
G1 X134.08 Y81.43 E2.5271
G1 X134.997 Y81.125 E2.55924
G1 X135.664 Y80.958 E2.58211
G1 X136.427 Y80.794 E2.60807
G1 X137.385 Y80.632 E2.64039
G1 X138.284 Y80.558 E2.67039
G1 X138.967 Y80.532 E2.69312
G1 X139.881 Y80.535 E2.72352
G1 X140.513 Y80.564 E2.74456
G1 X143.064 Y80.649 E2.82946
G1 X145.54 Y80.659 E2.91181
G1 X149.956 Y80.531 E3.05875
G1 X151.319 Y80.582 E3.10411
G1 X152.019 Y80.661 E3.12754
G1 X152.513 Y80.732 E3.14414
G1 X153.773 Y80.99 E3.18692
G1 X154.444 Y81.181 E3.21012
G1 X154.982 Y81.351 E3.22889
G1 X155.83 Y81.662 E3.25893
G1 X156.549 Y81.989 E3.2852
G1 X157.382 Y82.405 E3.31617
G1 X159.683 Y83.517 E3.40117
G1 X162.003 Y84.556 E3.48572
G1 X164.364 Y85.536 E3.57074
G1 X165.401 Y85.946 E3.60783
G1 X166.154 Y86.264 E3.63502
G1 X167.022 Y86.681 E3.66705
G1 X167.609 Y87.02 E3.68959
G1 X168.214 Y87.395 E3.71327
G1 X169.246 Y88.122 E3.75525
G1 X169.904 Y88.668 E3.78369
G1 X170.291 Y89.015 E3.80098
G1 X170.977 Y89.688 E3.83294
G1 X171.367 Y90.129 E3.85252
G1 X173.246 Y92.376 E3.94995
G1 X174.94 Y94.294 E4.03506
G1 X176.625 Y96.099 E4.11718
G1 X177.549 Y97.035 E4.16093
G1 X178.14 Y97.653 E4.18937
G1 X178.793 Y98.386 E4.22202
G1 X179.508 Y99.305 E4.26075
G1 X179.932 Y99.94 E4.28615
G1 X180.198 Y100.367 E4.30288
G1 X180.676 Y101.217 E4.33531
G1 X180.913 Y101.715 E4.35366
G1 X181.158 Y102.268 E4.37377
G1 X181.487 Y103.109 E4.40381
G1 X181.672 Y103.701 E4.42444
G1 X182.078 Y105.138 E4.4741
G1 X182.84 Y107.693 E4.56278
G1 X183.629 Y110.087 E4.64662
G1 X184.407 Y112.252 E4.72314
G1 X184.818 Y113.361 E4.76247
G1 X185.206 Y114.649 E4.80721
G1 X185.369 Y115.355 E4.83131
G1 X185.592 Y116.714 E4.87712
G1 X185.65 Y117.421 E4.90071
G1 X185.673 Y117.859 E4.9153
G1 X185.661 Y119.169 E4.95887
G1 X185.608 Y119.928 E4.98418
G1 X185.525 Y120.703 E5.0101
G1 X185.163 Y123.214 E5.09448
G1 X184.878 Y125.664 E5.17652
G1 X184.564 Y129.55 E5.30619
G1 X184.519 Y130.26 E5.32985
G1 X184.473 Y130.792 E5.34761
G1 X184.347 Y131.749 E5.37972
G1 X184.206 Y132.42 E5.40252
G1 X184.057 Y133.035 E5.42357
G1 X183.726 Y134.146 E5.46213
G1 X183.606 Y134.482 E5.47399
G1 X183.058 Y135.751 E5.51997
G1 X182.703 Y136.45 E5.54604
G1 X182.267 Y137.223 E5.57556
G1 X181.854 Y137.89 E5.60165
G1 X181.206 Y138.903 E5.64165
G1 X179.906 Y141.064 E5.72553
G1 X178.652 Y143.292 E5.81056
G1 X177.355 Y145.731 E5.90244
G1 X176.849 Y146.584 E5.93543
G1 X176.433 Y147.216 E5.96059
G1 X175.903 Y147.947 E5.99062
G1 X175.508 Y148.422 E6.01117
G1 X175.064 Y148.912 E6.03316
G1 X174.733 Y149.259 E6.04911
G1 X173.886 Y150.053 E6.08773
G1 X173.305 Y150.525 E6.11263
G1 X172.926 Y150.814 E6.12848
G1 X172.375 Y151.206 E6.15097
G1 X170.908 Y152.183 E6.20959
G1 X168.8 Y153.652 E6.29505
G1 X166.779 Y155.147 E6.37866
G1 X164.536 Y156.907 E6.47349
G1 X163.963 Y157.325 E6.49708
G1 X163.345 Y157.732 E6.52169
G1 X162.904 Y158.004 E6.53892
G1 X161.813 Y158.589 E6.5801
G1 X161.122 Y158.897 E6.60526
G1 X160.694 Y159.072 E6.62064
G1 X159.789 Y159.397 E6.65262
G1 X159.201 Y159.561 E6.67292
G1 X158.525 Y159.73 E6.6961
G1 X157.765 Y159.889 E6.72193
G1 X156.537 Y160.096 E6.76334
G1 X153.937 Y160.581 E6.85131
G1 X151.482 Y161.111 E6.93485
G1 X148.327 Y161.894 E7.04297
G1 X147.16 Y162.127 E7.08255
G1 X146.389 Y162.236 E7.10845
G1 X145.426 Y162.328 E7.14062
G1 X144.612 Y162.34 E7.1677
G1 X143.85 Y162.321 E7.19305
G1 X142.881 Y162.252 E7.22536
G1 X141.991 Y162.113 E7.25532
G1 X141.368 Y161.989 E7.27645
G1 X140.812 Y161.862 E7.29542
G1 X139.812 Y161.606 E7.32975
G1 X137.247 Y160.986 E7.41752
G1 X134.833 Y160.476 E7.49958
G1 X131.022 Y159.788 E7.62838
G1 X130.081 Y159.572 E7.6605
G1 X129.35 Y159.343 E7.68597
G1 X126.452 Y158.322 E7.78817
G1 X124.04 Y157.544 E7.87246
G1 X121.633 Y156.841 E7.95587
G1 X119.202 Y156.206 E8.03943
G1 X116.725 Y155.634 E8.12399
G1 X114.295 Y155.144 E8.20644
G1 X111.801 Y154.714 E8.29061
G1 X109.304 Y154.356 E8.37451
G1 X106.8 Y154.07 E8.45834
G1 X104.294 Y153.852 E8.542
G1 X101.812 Y153.71 E8.62469
G1 X99.248 Y153.635 E8.71
G1 X96.761 Y153.633 E8.79272
G1 X94.225 Y153.702 E8.8771
G1 X91.743 Y153.841 E8.95978
G1 X89.205 Y154.052 E9.04449
G1 X86.744 Y154.33 E9.12686
G1 X83.908 Y154.735 E9.22214
G1 X82.861 Y154.9 E9.25739
G1 X81.996 Y155.023 E9.28645
G1 X81.41 Y155.091 E9.30608
G1 X80.845 Y155.134 E9.32492
G1 X79.48 Y155.21 E9.37039
G1 X78.556 Y155.245 E9.40115
G1 X77.776 Y155.247 E9.42709
G1 X76.016 Y155.165 E9.48569
G1 X75.101 Y155.105 E9.51619
G1 X74.337 Y155.026 E9.54174
G1 X73.593 Y154.92 E9.56673
G1 X72.569 Y154.758 E9.60121
G1 X71.647 Y154.599 E9.63233
G1 X70.765 Y154.406 E9.66236
G1 X68.987 Y153.937 E9.72352
G1 X68.293 Y153.738 E9.74753
G1 X67.461 Y153.462 E9.77669
G1 X65.804 Y152.835 E9.83561
G1 X65.061 Y152.538 E9.86223
G1 X64.347 Y152.22 E9.88822
G1 X63.635 Y151.868 E9.91464
G1 X62.059 Y151.051 E9.97368
G1 X61.211 Y150.561 E10.00626
G1 X59.681 Y149.578 E10.06674
G1 X59.085 Y149.179 E10.0906
G1 X58.588 Y148.824 E10.11091
G1 X58.133 Y148.473 E10.13003
G1 X57.032 Y147.586 E10.17705
G1 X56.406 Y147.065 E10.20414
G1 X55.981 Y146.693 E10.22293
G1 X55.484 Y146.223 E10.24568
G1 X54.492 Y145.231 E10.29234
G1 X53.898 Y144.622 E10.32063
G1 X53.384 Y144.054 E10.34611
G1 X52.887 Y143.459 E10.3719
G1 X51.746 Y142.035 E10.43259
G1 X51.232 Y141.336 E10.46145
G1 X50.785 Y140.67 E10.48812
G1 X49.756 Y139.061 E10.55165
G1 X49.243 Y138.163 E10.58604
G1 X48.493 Y136.693 E10.64093
G1 X48.16 Y136.014 E10.66609
G1 X47.851 Y135.322 E10.69129
G1 X47.55 Y134.575 E10.71808
G1 X46.928 Y132.93 E10.77657
G1 X46.712 Y132.303 E10.79863
G1 X46.543 Y131.727 E10.81859
G1 X46.129 Y130.195 E10.87138
G1 X45.924 Y129.378 E10.89939
G1 X45.738 Y128.468 E10.93029
G1 X45.469 Y126.779 E10.98717
G1 X45.365 Y126.039 E11.01202
G1 X45.3 Y125.484 E11.03061
G1 X45.255 Y124.885 E11.05059
G1 X45.181 Y123.538 E11.09546
G1 X45.146 Y122.623 E11.12591
G1 X45.144 Y121.841 E11.15192
G1 X45.235 Y119.921 E11.21585
G1 X45.287 Y119.158 E11.24129
G1 X45.34 Y118.596 E11.26006
G1 X45.423 Y117.972 E11.281
G1 X45.661 Y116.46 E11.33191
G1 X45.788 Y115.729 E11.35659
G1 X45.978 Y114.859 E11.38621
G1 X46.433 Y113.128 E11.44574
G1 X46.641 Y112.393 E11.47114
G1 X46.873 Y111.676 E11.49621
G1 X47.117 Y111.009 E11.51983
G1 X47.586 Y109.794 E11.56315
G1 X47.854 Y109.126 E11.58709
G1 X48.197 Y108.366 E11.61482
G1 X49.017 Y106.735 E11.67554
G1 X49.371 Y106.063 E11.7008
G1 X49.76 Y105.385 E11.7268
G1 X50.149 Y104.768 E11.75106
G1 X50.812 Y103.747 E11.79155
G1 X51.215 Y103.147 E11.81559
G1 X51.649 Y102.546 E11.84024
G1 X52.099 Y101.969 E11.86458
G1 X52.907 Y100.973 E11.90724
G1 X53.37 Y100.42 E11.93122
G1 X53.741 Y100.002 E11.94981
G1 X54.158 Y99.563 E11.96995
G1 X55.283 Y98.435 E12.02294
G1 X55.781 Y97.952 E12.04601
G1 X56.207 Y97.564 E12.06518
G1 X56.646 Y97.189 E12.08438
G1 X57.755 Y96.286 E12.13195
G1 X58.431 Y95.754 E12.16056
G1 X59.161 Y95.227 E12.19051
G1 X60.477 Y94.361 E12.2429
G0 X60.691 Y94.699
G1 X61.527 Y94.171 E12.27579
G1 X62.165 Y93.8 E12.30034
G1 X62.891 Y93.417 E12.32764
G1 X64.464 Y92.629 E12.38615
G1 X65.061 Y92.352 E12.40804
G1 X65.62 Y92.122 E12.42815
G1 X66.861 Y91.643 E12.47239
G1 X67.716 Y91.327 E12.50271
G1 X68.43 Y91.093 E12.5277
G1 X69.095 Y90.904 E12.55069
G1 X70.29 Y90.584 E12.59184
G1 X71.008 Y90.403 E12.61647
G1 X71.703 Y90.253 E12.64012
G1 X72.404 Y90.129 E12.66379
G1 X73.513 Y89.954 E12.70113
G1 X74.4 Y89.827 E12.73094
G1 X75.127 Y89.75 E12.75525
G1 X75.788 Y89.705 E12.77729
G1 X76.958 Y89.643 E12.81626
G1 X77.783 Y89.612 E12.84372
G1 X78.492 Y89.61 E12.8673
G1 X79.194 Y89.635 E12.89066
G1 X80.306 Y89.693 E12.9277
G1 X81.198 Y89.752 E12.95743
G1 X81.854 Y89.816 E12.97935
G1 X84.431 Y90.152 E13.06579
G1 X86.967 Y90.418 E13.1506
G1 X89.472 Y90.608 E13.23416
G1 X92.036 Y90.729 E13.31953
G1 X94.519 Y90.777 E13.40213
G1 X97.069 Y90.753 E13.48695
G1 X99.6 Y90.658 E13.57119
G1 X102.127 Y90.492 E13.65542
G1 X104.612 Y90.258 E13.73843
G1 X107.166 Y89.944 E13.82402
G1 X109.641 Y89.568 E13.90728
G1 X112.143 Y89.117 E13.99184
G1 X114.6 Y88.601 E14.07534
G1 X117.045 Y88.015 E14.15897
G1 X119.493 Y87.354 E14.2433
G1 X121.919 Y86.623 E14.32758
G1 X124.317 Y85.828 E14.4116
G1 X126.724 Y84.953 E14.49679
G1 X129.049 Y84.033 E14.57995
G1 X131.374 Y83.036 E14.66409
G1 X132.165 Y82.671 E14.69307
G1 X133.28 Y82.178 E14.73361
G1 X133.748 Y81.985 E14.75045
G1 X134.207 Y81.809 E14.7668
G1 X135.094 Y81.513 E14.7979
G1 X135.748 Y81.349 E14.82033
G1 X136.494 Y81.188 E14.84571
G1 X137.418 Y81.031 E14.87688
G1 X138.3 Y80.958 E14.90632
G1 X138.966 Y80.932 E14.92849
G1 X139.863 Y80.935 E14.95832
G1 X140.495 Y80.964 E14.97936
G1 X143.051 Y81.049 E15.06442
G1 X145.55 Y81.059 E15.14754
G1 X149.941 Y80.931 E15.29365
G1 X151.275 Y80.98 E15.33805
G1 X151.963 Y81.057 E15.36107
G1 X152.433 Y81.124 E15.37686
G1 X153.663 Y81.375 E15.41862
G1 X154.334 Y81.566 E15.44182
G1 X154.844 Y81.727 E15.45961
G1 X155.692 Y82.038 E15.48965
G1 X156.37 Y82.347 E15.51443
G1 X157.203 Y82.763 E15.5454
G1 X159.511 Y83.878 E15.63065
G1 X161.84 Y84.921 E15.71553
G1 X164.217 Y85.908 E15.80113
G1 X165.246 Y86.315 E15.83794
G1 X165.981 Y86.625 E15.86447
G1 X166.822 Y87.028 E15.89549
G1 X167.398 Y87.36 E15.9176
G1 X168.003 Y87.735 E15.94127
G1 X168.991 Y88.43 E15.98145
G1 X169.637 Y88.966 E16.00937
G1 X170.011 Y89.301 E16.02607
G1 X170.677 Y89.953 E16.05707
G1 X171.06 Y90.386 E16.0763
G1 X172.946 Y92.641 E16.17407
G1 X174.64 Y94.559 E16.25918
G1 X176.34 Y96.38 E16.34204
G1 X177.26 Y97.312 E16.3856
G1 X177.841 Y97.919 E16.41355
G1 X178.477 Y98.632 E16.44532
G1 X179.192 Y99.551 E16.48405
G1 X179.592 Y100.151 E16.50804
G1 X179.858 Y100.578 E16.52477
G1 X180.315 Y101.389 E16.55573
G1 X180.547 Y101.877 E16.5737
G1 X180.785 Y102.414 E16.59324
G1 X181.114 Y103.255 E16.62327
G1 X181.287 Y103.81 E16.64261
G1 X181.693 Y105.247 E16.69227
G1 X182.46 Y107.818 E16.78151
G1 X183.251 Y110.217 E16.86553
G1 X184.032 Y112.391 E16.94236
G1 X184.435 Y113.476 E16.98086
G1 X184.816 Y114.74 E17.02476
G1 X184.974 Y115.42 E17.04798
G1 X185.193 Y116.747 E17.09272
G1 X185.251 Y117.442 E17.11591
G1 X185.273 Y117.856 E17.1297
G1 X185.262 Y119.141 E17.17244
G1 X185.21 Y119.886 E17.19728
G1 X185.129 Y120.646 E17.2227
G1 X184.767 Y123.157 E17.30708
G1 X184.479 Y125.632 E17.38996
G1 X184.165 Y129.518 E17.51963
G1 X184.12 Y130.226 E17.54322
G1 X184.076 Y130.74 E17.56038
G1 X183.955 Y131.667 E17.59147
G1 X183.817 Y132.326 E17.61387
G1 X183.668 Y132.941 E17.63492
G1 X183.349 Y134.011 E17.67205
G1 X183.229 Y134.347 E17.68392
G1 X182.691 Y135.592 E17.72903
G1 X182.354 Y136.254 E17.75374
G1 X181.927 Y137.012 E17.78267
G1 X181.517 Y137.674 E17.80857
G1 X180.869 Y138.687 E17.84857
G1 X179.563 Y140.858 E17.93283
G1 X178.303 Y143.096 E18.01826
G1 X177.011 Y145.527 E18.10982
G1 X176.515 Y146.364 E18.14218
G1 X176.109 Y146.981 E18.16675
G1 X175.579 Y147.712 E18.19678
G1 X175.211 Y148.154 E18.21591
G1 X174.775 Y148.636 E18.23752
G1 X174.459 Y148.967 E18.25274
G1 X173.612 Y149.761 E18.29136
G1 X173.063 Y150.207 E18.31488
G1 X172.694 Y150.488 E18.33031
G1 X172.153 Y150.873 E18.3524
G1 X170.686 Y151.85 E18.41102
G1 X168.562 Y153.33 E18.49712
G1 X166.541 Y154.825 E18.58073
G1 X164.3 Y156.584 E18.67549
G1 X163.743 Y156.991 E18.69843
G1 X163.135 Y157.392 E18.72266
G1 X162.715 Y157.651 E18.73907
G1 X161.624 Y158.236 E18.78024
G1 X160.97 Y158.527 E18.80405
G1 X160.558 Y158.696 E18.81886
G1 X159.681 Y159.012 E18.84987
G1 X159.104 Y159.173 E18.86979
G1 X158.443 Y159.338 E18.89245
G1 X157.683 Y159.497 E18.91828
G1 X156.464 Y159.703 E18.95939
G1 X153.853 Y160.19 E19.04773
G1 X151.398 Y160.72 E19.13127
G1 X148.843 Y161.348 E19.21878
G1 X148.248 Y161.502 E19.23922
G1 X147.104 Y161.731 E19.27802
G1 X146.351 Y161.838 E19.30332
G1 X145.42 Y161.928 E19.33443
G1 X144.622 Y161.94 E19.36097
G1 X143.878 Y161.922 E19.38573
G1 X142.943 Y161.857 E19.4169
G1 X142.069 Y161.721 E19.44632
G1 X141.457 Y161.599 E19.46708
G1 X140.911 Y161.474 E19.48571
G1 X139.911 Y161.218 E19.52004
G1 X137.341 Y160.597 E19.60798
G1 X134.904 Y160.082 E19.69082
G1 X131.111 Y159.398 E19.81901
G1 X130.2 Y159.19 E19.85009
G1 X129.483 Y158.966 E19.87508
G1 X126.575 Y157.941 E19.97763
G1 X124.163 Y157.163 E20.06192
G1 X121.745 Y156.457 E20.1457
G1 X119.292 Y155.816 E20.23003
G1 X116.815 Y155.244 E20.31458
G1 X114.37 Y154.751 E20.39754
G1 X111.858 Y154.318 E20.48232
G1 X109.361 Y153.96 E20.56622
G1 X106.835 Y153.671 E20.65079
G1 X104.329 Y153.454 E20.73445
G1 X101.824 Y153.31 E20.8179
G1 X99.26 Y153.235 E20.90322
G1 X96.75 Y153.233 E20.9867
G1 X94.214 Y153.302 E21.07108
G1 X91.71 Y153.442 E21.15449
G1 X89.172 Y153.654 E21.2392
G1 X86.687 Y153.934 E21.32238
G1 X83.851 Y154.339 E21.41766
G1 X82.804 Y154.504 E21.45291
G1 X81.95 Y154.626 E21.4816
G1 X81.379 Y154.692 E21.50072
G1 X80.823 Y154.735 E21.51927
G1 X79.465 Y154.81 E21.56451
G1 X78.555 Y154.845 E21.59479
G1 X77.794 Y154.847 E21.62011
G1 X76.042 Y154.766 E21.67844
G1 X75.142 Y154.707 E21.70844
G1 X74.393 Y154.63 E21.73348
G1 X73.655 Y154.525 E21.75827
G1 X72.637 Y154.364 E21.79255
G1 X71.732 Y154.208 E21.8231
G1 X70.867 Y154.019 E21.85255
G1 X69.097 Y153.552 E21.91343
G1 X68.419 Y153.358 E21.93689
G1 X67.602 Y153.088 E21.96551
G1 X65.952 Y152.464 E22.02418
G1 X65.224 Y152.173 E22.05026
G1 X64.524 Y151.861 E22.07575
G1 X63.819 Y151.513 E22.10189
G1 X62.259 Y150.705 E22.16033
G1 X61.427 Y150.225 E22.19227
G1 X59.904 Y149.246 E22.25249
G1 X59.317 Y148.853 E22.27599
G1 X58.832 Y148.507 E22.2958
G1 X58.384 Y148.162 E22.31461
G1 X57.288 Y147.278 E22.36144
G1 X56.669 Y146.764 E22.3882
G1 X56.256 Y146.403 E22.40645
G1 X55.767 Y145.94 E22.42885
G1 X54.778 Y144.952 E22.47534
G1 X54.194 Y144.353 E22.50317
G1 X53.691 Y143.798 E22.52808
G1 X53.199 Y143.209 E22.5536
G1 X52.068 Y141.798 E22.61375
G1 X51.564 Y141.113 E22.64204
G1 X51.122 Y140.454 E22.66843
G1 X50.103 Y138.862 E22.7313
G1 X49.599 Y137.981 E22.76505
G1 X48.852 Y136.517 E22.81972
G1 X48.525 Y135.851 E22.8444
G1 X48.222 Y135.173 E22.8691
