;FLAVOR:Marlin
;TIME:3093
;Filament used: 3.12069m
;Layer height: 0.2
;MINX:68.99
;MINY:69.141
;MINZ:0.2
;MAXX:150.994
;MAXY:150.862
;MAXZ:7.2
;TARGET_MACHINE.NAME:Creality Ender-3 V3 SE
;Generated with Cura_SteamEngine 5.6.0
M140 S60
M105
M190 S60
M104 S200
M105
M109 S200
M82 ;absolute extrusion mode
M220 S100 ;Reset Feedrate
M221 S100 ;Reset Flowrate

G28 ;Home

M420 S1; Enable mesh leveling

G92 E0 ;Reset Extruder
G1 Z2.0 F3000 ;Move Z Axis up
G1 X10.1 Y20 Z0.28 F5000.0 ;Move to start position
M109 S[material_print_temperature_layer_0]
G1 X10.1 Y145.0 Z0.28 F1500.0 E15 ;Draw the first line
G1 X10.4 Y145.0 Z0.28 F5000.0 ;Move to side a little
G1 X10.4 Y20 Z0.28 F1500.0 E30 ;Draw the second line
G92 E0  ;Reset Extruder
G1 E-1.0000 F1800 ;Retract a bit
G1 Z2.0 F3000 ;Move Z Axis up
G1 E0.0000 F1800 

G92 E0
G92 E0
G1 F2400 E-0.8
;LAYER_COUNT:36
;LAYER:0
M107
G0 F9000 X83.836 Y78.14 Z0.2
;TYPE:SKIRT
G1 F2400 E0
G1 F1800 X84.296 Y77.7 E0.02117
G1 X84.858 Y77.194 E0.04632
G1 X85.606 Y76.579 E0.07853
G1 X86.249 Y76.133 E0.10456
G1 X86.854 Y75.744 E0.12848
G1 X87.948 Y75.131 E0.17019
G1 X88.808 Y74.74 E0.20161
G1 X92.079 Y73.408 E0.31908
G1 X94.38 Y72.394 E0.40271
G1 X96.648 Y71.316 E0.48624
G1 X97.811 Y70.736 E0.52946
G1 X98.492 Y70.422 E0.5544
G1 X98.967 Y70.226 E0.57149
G1 X99.434 Y70.047 E0.58813
G1 X100.364 Y69.738 E0.62072
G1 X101.007 Y69.576 E0.64278
G1 X101.721 Y69.421 E0.66708
G1 X102.669 Y69.259 E0.69907
G1 X103.419 Y69.186 E0.72413
G1 X104.321 Y69.142 E0.75416
G1 X105.247 Y69.146 E0.78496
G1 X105.863 Y69.175 E0.80548
G1 X108.399 Y69.259 E0.88987
G1 X110.929 Y69.271 E0.97402
G1 X113.458 Y69.211 E1.05816
G1 X114.562 Y69.162 E1.09491
G1 X115.302 Y69.141 E1.11953
G1 X116.205 Y69.156 E1.14957
G1 X116.985 Y69.227 E1.17562
G1 X117.689 Y69.318 E1.19923
G1 X119.12 Y69.602 E1.24776
G1 X119.765 Y69.783 E1.27004
G1 X120.209 Y69.922 E1.28551
G1 X121.416 Y70.379 E1.32844
G1 X122.006 Y70.654 E1.35009
G1 X122.863 Y71.079 E1.3819
G1 X125.268 Y72.234 E1.47064
G1 X127.52 Y73.239 E1.55266
G1 X129.962 Y74.244 E1.64049
G1 X131.024 Y74.669 E1.67854
G1 X131.493 Y74.87 E1.69551
G1 X132.71 Y75.485 E1.74086
G1 X133.336 Y75.861 E1.76515
G1 X133.706 Y76.099 E1.77978
G1 X134.563 Y76.713 E1.81485
G1 X135.293 Y77.32 E1.84643
G1 X135.682 Y77.672 E1.86387
G1 X136.344 Y78.326 E1.89483
G1 X136.718 Y78.749 E1.9136
G1 X138.615 Y81.016 E2.01192
G1 X140.305 Y82.928 E2.0968
G1 X142.012 Y84.754 E2.17993
G1 X142.602 Y85.35 E2.20783
G1 X143.44 Y86.22 E2.248
G1 X143.788 Y86.601 E2.26517
G1 X144.155 Y87.022 E2.28374
G1 X144.718 Y87.728 E2.31378
G1 X145.173 Y88.397 E2.34069
G1 X145.525 Y88.962 E2.36283
G1 X146.149 Y90.111 E2.40631
G1 X146.421 Y90.715 E2.42835
G1 X146.608 Y91.163 E2.44449
G1 X147.035 Y92.385 E2.48755
G1 X147.798 Y95.07 E2.58039
G1 X148.549 Y97.472 E2.66409
G1 X149.793 Y101.012 E2.78889
G1 X150.12 Y101.888 E2.81999
G1 X150.493 Y103.113 E2.86258
G1 X150.674 Y103.876 E2.88866
G1 X150.843 Y104.763 E2.91869
G1 X150.933 Y105.548 E2.94497
G1 X150.994 Y106.522 E2.97743
G1 X150.99 Y107.726 E3.01748
G1 X150.929 Y108.495 E3.04314
G1 X150.821 Y109.429 E3.07441
G1 X150.476 Y111.815 E3.15459
G1 X150.195 Y114.241 E3.23582
G1 X149.881 Y118.11 E3.36493
G1 X149.853 Y118.586 E3.38079
G1 X149.788 Y119.367 E3.40685
G1 X149.59 Y120.68 E3.45102
G1 X149.406 Y121.482 E3.47838
G1 X149.32 Y121.805 E3.4895
G1 X149.041 Y122.695 E3.52052
G1 X148.869 Y123.172 E3.53739
G1 X148.515 Y124.035 E3.56841
G1 X148.273 Y124.525 E3.58659
G1 X147.967 Y125.109 E3.60852
G1 X147.593 Y125.762 E3.63355
G1 X147.237 Y126.338 E3.65607
G1 X146.405 Y127.645 E3.7076
G1 X145.106 Y129.819 E3.79183
G1 X143.885 Y132.003 E3.87505
G1 X143.387 Y132.956 E3.91082
G1 X143.251 Y133.192 E3.91988
G1 X142.683 Y134.265 E3.96026
G1 X142.147 Y135.17 E3.99524
G1 X141.751 Y135.767 E4.01907
G1 X141.169 Y136.562 E4.05184
G1 X140.657 Y137.156 E4.07792
G1 X140.158 Y137.692 E4.10228
G1 X139.151 Y138.644 E4.14837
G1 X138.611 Y139.08 E4.17145
G1 X138.221 Y139.375 E4.18772
G1 X137.745 Y139.714 E4.20715
G1 X136.318 Y140.664 E4.26417
G1 X134.262 Y142.094 E4.34747
G1 X132.244 Y143.582 E4.43086
G1 X129.867 Y145.443 E4.53127
G1 X129.147 Y145.963 E4.56081
G1 X128.671 Y146.271 E4.57967
G1 X128.223 Y146.545 E4.59713
G1 X127.433 Y146.982 E4.62716
G1 X126.826 Y147.264 E4.64942
G1 X126.198 Y147.532 E4.67213
G1 X124.819 Y148.015 E4.72073
G1 X124.167 Y148.186 E4.74315
G1 X123.67 Y148.3 E4.76011
G1 X123.073 Y148.42 E4.78036
G1 X121.441 Y148.701 E4.83544
G1 X118.958 Y149.174 E4.91951
G1 X116.475 Y149.721 E5.00407
G1 X113.559 Y150.451 E5.10405
G1 X112.506 Y150.654 E5.13972
G1 X111.763 Y150.759 E5.16468
G1 X110.799 Y150.851 E5.19689
G1 X109.987 Y150.862 E5.2239
G1 X109.268 Y150.844 E5.24782
G1 X108.305 Y150.777 E5.27993
G1 X107.588 Y150.671 E5.30403
G1 X106.929 Y150.551 E5.32631
G1 X106.222 Y150.396 E5.35039
G1 X105.199 Y150.134 E5.38551
G1 X102.697 Y149.527 E5.47114
G1 X100.234 Y149.005 E5.55488
G1 X96.402 Y148.312 E5.6844
G1 X95.465 Y148.099 E5.71636
G1 X94.923 Y147.934 E5.7352
G1 X94.262 Y147.708 E5.75844
G1 X93.835 Y147.548 E5.7736
G1 X92.705 Y147.048 E5.8147
G1 X92.063 Y146.707 E5.83888
G1 X91.614 Y146.451 E5.85607
G1 X90.801 Y145.937 E5.88806
G1 X90.298 Y145.565 E5.90887
G1 X87.824 Y143.624 E6.01346
G1 X85.807 Y142.135 E6.09684
G1 X83.743 Y140.701 E6.18044
G1 X82.315 Y139.748 E6.23754
G1 X81.725 Y139.335 E6.26149
G1 X80.666 Y138.486 E6.30663
G1 X80.094 Y137.949 E6.33273
G1 X79.717 Y137.57 E6.35051
G1 X79.087 Y136.881 E6.38156
G1 X78.626 Y136.292 E6.40644
G1 X78.304 Y135.849 E6.42465
G1 X77.591 Y134.728 E6.46884
G1 X77.084 Y133.809 E6.50375
G1 X75.991 Y131.746 E6.5814
G1 X74.753 Y129.559 E6.66499
G1 X72.91 Y126.547 E6.78243
G1 X72.496 Y125.896 E6.80809
G1 X71.967 Y124.991 E6.84296
G1 X71.528 Y124.133 E6.87501
G1 X71.263 Y123.503 E6.89774
G1 X70.997 Y122.806 E6.92256
G1 X70.712 Y121.949 E6.9526
G1 X70.508 Y121.125 E6.98083
G1 X70.387 Y120.532 E7.00096
G1 X70.244 Y119.64 E7.03101
G1 X70.193 Y119.104 E7.04892
G1 X70.068 Y117.293 E7.10929
G1 X69.852 Y114.693 E7.19607
G1 X69.578 Y112.241 E7.27813
G1 X69.361 Y110.759 E7.32795
G1 X69.339 Y110.547 E7.33503
G1 X69.134 Y109.054 E7.38516
G1 X69.075 Y108.53 E7.4027
G1 X69.029 Y108.015 E7.41989
G1 X68.99 Y107.113 E7.44992
G1 X69.013 Y106.384 E7.47418
G1 X69.062 Y105.633 E7.49921
G1 X69.236 Y104.299 E7.54396
G1 X69.405 Y103.511 E7.57076
G1 X69.534 Y103.002 E7.58823
G1 X69.88 Y101.886 E7.62709
G1 X70.299 Y100.755 E7.6672
G1 X71.156 Y98.344 E7.75231
G1 X71.944 Y95.905 E7.83756
G1 X72.662 Y93.453 E7.92254
G1 X72.894 Y92.623 E7.9512
G1 X73.083 Y92.015 E7.97238
G1 X73.329 Y91.332 E7.99652
G1 X73.52 Y90.851 E8.01374
G1 X73.89 Y90.027 E8.04378
G1 X74.23 Y89.396 E8.06762
G1 X74.606 Y88.754 E8.09236
G1 X75.376 Y87.613 E8.13815
G1 X75.817 Y87.06 E8.16167
G1 X76.136 Y86.685 E8.17805
G1 X76.634 Y86.139 E8.20263
G1 X78.453 Y84.273 E8.2893
G1 X80.172 Y82.409 E8.37364
G1 X81.833 Y80.498 E8.45785
G1 X83.211 Y78.831 E8.52978
G1 X83.836 Y78.14 E8.56077
G0 F9000 X84.113 Y78.429
G1 F1800 X84.564 Y77.997 E8.58155
G1 X85.112 Y77.503 E8.60608
G1 X85.834 Y76.908 E8.6372
G1 X86.466 Y76.469 E8.6628
G1 X87.05 Y76.093 E8.6859
G1 X88.144 Y75.48 E8.72761
G1 X88.959 Y75.11 E8.75738
G1 X92.24 Y73.774 E8.8752
G1 X94.541 Y72.76 E8.95884
G1 X96.827 Y71.674 E9.04301
G1 X97.978 Y71.099 E9.08581
G1 X98.644 Y70.792 E9.1102
G1 X99.11 Y70.6 E9.12696
G1 X99.577 Y70.421 E9.1436
G1 X100.462 Y70.126 E9.17462
G1 X101.092 Y69.967 E9.19623
G1 X101.789 Y69.815 E9.21996
G1 X102.708 Y69.657 E9.25098
G1 X103.438 Y69.586 E9.27537
G1 X104.34 Y69.542 E9.30541
G1 X105.228 Y69.546 E9.33494
G1 X105.844 Y69.575 E9.35545
G1 X108.386 Y69.659 E9.44005
G1 X110.936 Y69.671 E9.52486
G1 X113.476 Y69.611 E9.60936
G1 X114.574 Y69.562 E9.64592
G1 X115.295 Y69.541 E9.66991
G1 X116.198 Y69.556 E9.69995
G1 X116.934 Y69.624 E9.72453
G1 X117.638 Y69.715 E9.74814
G1 X119.012 Y69.987 E9.79473
G1 X119.645 Y70.165 E9.8166
G1 X120.089 Y70.304 E9.83207
G1 X121.247 Y70.742 E9.87325
G1 X121.828 Y71.012 E9.89456
G1 X122.69 Y71.44 E9.92657
G1 X125.095 Y72.595 E10.01531
G1 X127.368 Y73.609 E10.09809
G1 X129.81 Y74.614 E10.18592
G1 X130.866 Y75.037 E10.22376
G1 X131.335 Y75.238 E10.24073
G1 X132.529 Y75.842 E10.28523
G1 X133.12 Y76.197 E10.30816
G1 X133.473 Y76.424 E10.32212
G1 X134.33 Y77.038 E10.35719
G1 X135.025 Y77.617 E10.38727
G1 X135.401 Y77.957 E10.40413
G1 X136.044 Y78.591 E10.43417
G1 X136.411 Y79.006 E10.45259
G1 X138.315 Y81.281 E10.55126
G1 X140.005 Y83.193 E10.63614
G1 X141.72 Y85.027 E10.71965
G1 X142.314 Y85.627 E10.74773
G1 X143.145 Y86.49 E10.78758
G1 X143.487 Y86.864 E10.80444
G1 X143.842 Y87.271 E10.8224
G1 X144.405 Y87.977 E10.85243
G1 X144.833 Y88.609 E10.87782
G1 X145.185 Y89.174 E10.89996
G1 X145.784 Y90.275 E10.94165
G1 X146.052 Y90.87 E10.96335
G1 X146.23 Y91.295 E10.97868
G1 X146.65 Y92.494 E11.02093
G1 X147.416 Y95.189 E11.11412
G1 X148.167 Y97.591 E11.19782
G1 X149.418 Y101.152 E11.32336
G1 X149.737 Y102.005 E11.35365
G1 X150.11 Y103.23 E11.39624
G1 X150.281 Y103.951 E11.42089
G1 X150.45 Y104.838 E11.45092
G1 X150.534 Y105.573 E11.47552
G1 X150.594 Y106.521 E11.50712
G1 X150.591 Y107.695 E11.54616
G1 X150.532 Y108.449 E11.57132
G1 X150.425 Y109.372 E11.60222
G1 X150.08 Y111.758 E11.68241
G1 X149.796 Y114.209 E11.76447
G1 X149.482 Y118.078 E11.89358
G1 X149.454 Y118.553 E11.90941
G1 X149.392 Y119.307 E11.93457
G1 X149.194 Y120.62 E11.97873
G1 X149.019 Y121.38 E12.00467
G1 X148.938 Y121.686 E12.0152
G1 X148.665 Y122.559 E12.04562
G1 X148.499 Y123.02 E12.06192
G1 X148.145 Y123.883 E12.09294
G1 X147.919 Y124.339 E12.10987
G1 X147.62 Y124.91 E12.13131
G1 X147.253 Y125.552 E12.15591
G1 X146.9 Y126.123 E12.17823
G1 X146.068 Y127.43 E12.22976
G1 X144.763 Y129.614 E12.31438
G1 X143.53 Y131.818 E12.39838
G1 X143.04 Y132.756 E12.43358
G1 X142.904 Y132.992 E12.44264
G1 X142.339 Y134.061 E12.48285
G1 X141.813 Y134.949 E12.51718
G1 X141.428 Y135.531 E12.54039
G1 X140.866 Y136.301 E12.5721
G1 X140.364 Y136.884 E12.59769
G1 X139.883 Y137.402 E12.6212
G1 X138.9 Y138.333 E12.66623
G1 X138.37 Y138.761 E12.68889
G1 X137.989 Y139.049 E12.70477
G1 X137.523 Y139.381 E12.7238
G1 X136.096 Y140.332 E12.78084
G1 X134.025 Y141.772 E12.86473
G1 X131.997 Y143.267 E12.94853
G1 X129.633 Y145.119 E13.04842
G1 X128.93 Y145.627 E13.07726
G1 X128.462 Y145.93 E13.09581
G1 X128.029 Y146.195 E13.11269
G1 X127.239 Y146.632 E13.14272
G1 X126.669 Y146.896 E13.16361
G1 X126.041 Y147.164 E13.18632
G1 X124.717 Y147.628 E13.23298
G1 X124.077 Y147.796 E13.25499
G1 X123.591 Y147.908 E13.27158
G1 X123.005 Y148.026 E13.29146
G1 X121.366 Y148.308 E13.34678
G1 X118.872 Y148.783 E13.43122
G1 X116.389 Y149.33 E13.51578
G1 X113.462 Y150.063 E13.61614
G1 X112.45 Y150.258 E13.65042
G1 X111.725 Y150.361 E13.67478
G1 X110.793 Y150.451 E13.70592
G1 X109.997 Y150.462 E13.7324
G1 X109.295 Y150.445 E13.75575
G1 X108.363 Y150.381 E13.78682
G1 X107.66 Y150.278 E13.81045
G1 X107.015 Y150.16 E13.83226
G1 X106.308 Y150.005 E13.85634
G1 X105.293 Y149.745 E13.89119
G1 X102.791 Y149.138 E13.97682
G1 X100.305 Y148.611 E14.06134
G1 X96.49 Y147.922 E14.19028
G1 X95.581 Y147.716 E14.22128
G1 X95.053 Y147.556 E14.23963
G1 X94.402 Y147.333 E14.26252
G1 X93.997 Y147.182 E14.27689
G1 X92.867 Y146.682 E14.31799
G1 X92.261 Y146.36 E14.34082
G1 X91.828 Y146.113 E14.3574
G1 X91.039 Y145.615 E14.38843
G1 X90.545 Y145.25 E14.40886
G1 X88.071 Y143.309 E14.51344
G1 X86.045 Y141.814 E14.59719
G1 X83.965 Y140.368 E14.68145
G1 X82.544 Y139.42 E14.73826
G1 X81.954 Y139.007 E14.76221
G1 X80.94 Y138.194 E14.80544
G1 X80.368 Y137.657 E14.83154
G1 X80.012 Y137.3 E14.84831
G1 X79.402 Y136.634 E14.87834
G1 X78.95 Y136.057 E14.90272
G1 X78.628 Y135.614 E14.92094
G1 X77.941 Y134.535 E14.96348
G1 X77.437 Y133.622 E14.99817
G1 X76.339 Y131.549 E15.07619
G1 X75.101 Y129.362 E15.15978
G1 X73.248 Y126.332 E15.27791
G1 X72.834 Y125.681 E15.30357
G1 X72.323 Y124.809 E15.33718
G1 X71.897 Y123.978 E15.36824
G1 X71.637 Y123.36 E15.39054
G1 X71.377 Y122.68 E15.41475
G1 X71.092 Y121.823 E15.44479
G1 X70.9 Y121.045 E15.47145
G1 X70.782 Y120.469 E15.491
G1 X70.639 Y119.577 E15.52105
G1 X70.592 Y119.076 E15.53779
G1 X70.467 Y117.265 E15.59816
G1 X70.251 Y114.66 E15.6851
G1 X69.976 Y112.197 E15.76753
G1 X69.759 Y110.718 E15.81725
G1 X69.737 Y110.506 E15.82434
G1 X69.531 Y109.009 E15.8746
G1 X69.473 Y108.495 E15.8918
G1 X69.429 Y107.998 E15.9084
G1 X69.39 Y107.096 E15.93843
G1 X69.412 Y106.41 E15.96125
G1 X69.459 Y105.685 E15.98542
G1 X69.633 Y104.351 E16.03016
G1 X69.793 Y103.609 E16.05541
G1 X69.916 Y103.12 E16.07218
G1 X70.255 Y102.025 E16.11031
G1 X70.674 Y100.894 E16.15042
G1 X71.533 Y98.478 E16.23571
G1 X72.325 Y96.028 E16.32135
G1 X73.046 Y93.565 E16.4067
G1 X73.276 Y92.741 E16.43516
G1 X73.459 Y92.151 E16.4557
G1 X73.701 Y91.479 E16.47946
G1 X73.885 Y91.015 E16.49606
G1 X74.255 Y90.191 E16.5261
G1 X74.575 Y89.598 E16.54851
G1 X74.938 Y88.977 E16.57244
G1 X75.689 Y87.862 E16.61715
G1 X76.122 Y87.319 E16.64025
G1 X76.432 Y86.954 E16.65618
G1 X76.92 Y86.418 E16.68029
G1 X78.747 Y84.544 E16.76734
G1 X80.466 Y82.68 E16.85167
G1 X82.135 Y80.76 E16.93629
G1 X83.508 Y79.099 E17.00796
G1 X84.113 Y78.429 E17.03799
G0 F9000 X84.41 Y78.697
G1 F1800 X84.832 Y78.294 E17.05739
G1 X85.367 Y77.811 E17.08137
G1 X86.063 Y77.236 E17.1114
G1 X86.682 Y76.805 E17.13648
G1 X87.246 Y76.442 E17.15879
G1 X88.34 Y75.829 E17.2005
G1 X89.11 Y75.48 E17.22862
G1 X92.401 Y74.14 E17.3468
G1 X94.702 Y73.126 E17.43044
G1 X97.006 Y72.032 E17.51527
G1 X98.145 Y71.462 E17.55763
G1 X98.797 Y71.162 E17.5815
G1 X99.254 Y70.973 E17.59795
G1 X99.704 Y70.8 E17.61398
G1 X100.56 Y70.514 E17.644
G1 X101.178 Y70.358 E17.6652
G1 X101.857 Y70.209 E17.68832
G1 X102.747 Y70.055 E17.71836
G1 X103.457 Y69.986 E17.74209
G1 X104.359 Y69.942 E17.77213
G1 X105.209 Y69.946 E17.8004
G1 X105.825 Y69.975 E17.82091
G1 X108.373 Y70.059 E17.9057
G1 X110.943 Y70.071 E17.99118
G1 X113.494 Y70.011 E18.07605
G1 X114.586 Y69.962 E18.11241
G1 X115.288 Y69.941 E18.13577
G1 X116.191 Y69.956 E18.1658
G1 X116.883 Y70.021 E18.18892
G1 X117.587 Y70.112 E18.21253
G1 X118.904 Y70.372 E18.25718
G1 X119.525 Y70.547 E18.27864
G1 X119.969 Y70.686 E18.29411
G1 X121.079 Y71.105 E18.33358
G1 X121.65 Y71.37 E18.35451
G1 X122.517 Y71.801 E18.38672
G1 X124.922 Y72.956 E18.47545
G1 X127.216 Y73.979 E18.55899
G1 X129.658 Y74.984 E18.64682
G1 X130.708 Y75.405 E18.68445
G1 X131.177 Y75.606 E18.70142
G1 X132.323 Y76.185 E18.74413
G1 X132.904 Y76.534 E18.76667
G1 X133.24 Y76.749 E18.77994
G1 X134.097 Y77.363 E18.815
G1 X134.757 Y77.914 E18.8436
G1 X135.12 Y78.242 E18.85987
G1 X135.763 Y78.876 E18.8899
G1 X136.104 Y79.263 E18.90706
G1 X138.015 Y81.546 E19.00608
G1 X139.705 Y83.458 E19.09096
G1 X141.428 Y85.3 E19.17485
G1 X142.026 Y85.904 E19.20312
G1 X142.85 Y86.76 E19.24263
G1 X143.186 Y87.127 E19.25918
G1 X143.529 Y87.52 E19.27653
G1 X144.092 Y88.226 E19.30657
G1 X144.494 Y88.821 E19.33045
G1 X144.834 Y89.365 E19.35179
G1 X145.419 Y90.439 E19.39246
G1 X145.683 Y91.025 E19.41384
G1 X145.861 Y91.45 E19.42917
G1 X146.265 Y92.603 E19.4698
G1 X147.034 Y95.309 E19.56337
G1 X147.786 Y97.711 E19.64708
G1 X149.043 Y101.292 E19.77331
G1 X149.354 Y102.122 E19.80279
G1 X149.727 Y103.347 E19.84538
G1 X149.888 Y104.026 E19.86859
G1 X150.057 Y104.913 E19.89862
G1 X150.135 Y105.599 E19.92159
G1 X150.194 Y106.52 E19.95228
G1 X150.192 Y107.664 E19.99033
G1 X150.135 Y108.403 E20.01498
G1 X150.029 Y109.315 E20.04552
G1 X149.684 Y111.701 E20.12571
G1 X149.397 Y114.177 E20.20861
G1 X149.083 Y118.046 E20.33772
G1 X149.055 Y118.521 E20.35354
G1 X148.996 Y119.247 E20.37777
G1 X148.798 Y120.56 E20.42193
G1 X148.632 Y121.278 E20.44644
G1 X148.556 Y121.567 E20.45638
G1 X148.289 Y122.424 E20.48624
G1 X148.129 Y122.869 E20.50197
G1 X147.787 Y123.705 E20.53201
G1 X147.565 Y124.153 E20.54864
G1 X147.272 Y124.712 E20.56963
G1 X146.913 Y125.342 E20.59375
G1 X146.563 Y125.908 E20.61588
G1 X145.731 Y127.215 E20.66741
G1 X144.42 Y129.409 E20.75242
G1 X143.175 Y131.633 E20.83719
G1 X142.685 Y132.571 E20.87239
G1 X142.55 Y132.805 E20.88138
G1 X141.995 Y133.857 E20.92094
G1 X141.479 Y134.728 E20.95461
G1 X141.094 Y135.31 E20.97782
G1 X140.563 Y136.04 E21.00784
