;FLAVOR:Marlin
;TIME:3090
;Filament used: 3.04861m
;Layer height: 0.2
;MINX:69.159
;MINY:69.159
;MINZ:0.2
;MAXX:150.843
;MAXY:150.851
;MAXZ:7.2
;TARGET_MACHINE.NAME:Creality Ender-3 V3 SE
;Generated with Cura_SteamEngine 5.6.0
M140 S60
M105
M190 S60
M104 S220
M105
M109 S220
M82 ;absolute extrusion mode
M220 S100 ;Reset Feedrate
M221 S100 ;Reset Flowrate

G28 ;Home

M420 S1; Enable mesh leveling

G92 E0 ;Reset Extruder
G1 Z2.0 F3000 ;Move Z Axis up
G1 X10.1 Y20 Z0.28 F5000.0 ;Move to start position
M109 S[material_print_temperature_layer_0]
G1 X10.1 Y145.0 Z0.28 F1500.0 E15 ;Draw the first line
G1 X10.4 Y145.0 Z0.28 F5000.0 ;Move to side a little
G1 X10.4 Y20 Z0.28 F1500.0 E30 ;Draw the second line
G92 E0  ;Reset Extruder
G1 E-1.0000 F1800 ;Retract a bit
G1 Z2.0 F3000 ;Move Z Axis up
G1 E0.0000 F1800 

G92 E0
G92 E0
G1 F2400 E-0.8
;LAYER_COUNT:36
;LAYER:0
M107
G0 F9000 X83.943 Y78.143 Z0.2
;TYPE:SKIRT
G1 F2400 E0
G1 F1800 X84.358 Y77.743 E0.01917
G1 X84.897 Y77.252 E0.04342
G1 X85.611 Y76.656 E0.07436
G1 X86.082 Y76.315 E0.0937
G1 X86.655 Y75.934 E0.11658
G1 X87.096 Y75.659 E0.13387
G1 X87.944 Y75.182 E0.16623
G1 X88.741 Y74.819 E0.19536
G1 X91.989 Y73.493 E0.31204
G1 X94.276 Y72.484 E0.39518
G1 X96.622 Y71.37 E0.48156
G1 X97.837 Y70.758 E0.52681
G1 X98.356 Y70.514 E0.54588
G1 X99.023 Y70.234 E0.56994
G1 X99.481 Y70.058 E0.58626
G1 X100.717 Y69.666 E0.62939
G1 X101.404 Y69.502 E0.65288
G1 X101.88 Y69.405 E0.66904
G1 X102.832 Y69.254 E0.7011
G1 X103.499 Y69.201 E0.72335
G1 X104.196 Y69.165 E0.74656
G1 X105.192 Y69.16 E0.77969
G1 X106.28 Y69.206 E0.81591
G1 X108.878 Y69.28 E0.90236
G1 X111.353 Y69.28 E0.98468
G1 X115.267 Y69.159 E1.11492
G1 X116.17 Y69.171 E1.14495
G1 X116.984 Y69.244 E1.17214
G1 X117.693 Y69.337 E1.19592
G1 X118.646 Y69.506 E1.22811
G1 X119.432 Y69.711 E1.25513
G1 X120.131 Y69.924 E1.27943
G1 X121.045 Y70.248 E1.31169
G1 X121.834 Y70.603 E1.34046
G1 X122.827 Y71.099 E1.37738
G1 X125.128 Y72.211 E1.46238
G1 X127.448 Y73.25 E1.54693
G1 X129.852 Y74.248 E1.6335
G1 X130.904 Y74.67 E1.6712
G1 X131.415 Y74.888 E1.68968
G1 X132.301 Y75.315 E1.72239
G1 X132.907 Y75.668 E1.74572
G1 X133.558 Y76.075 E1.77125
G1 X134.36 Y76.629 E1.80367
G1 X135.076 Y77.221 E1.83457
G1 X135.552 Y77.651 E1.85591
G1 X136.214 Y78.305 E1.88686
G1 X136.609 Y78.754 E1.90675
G1 X138.495 Y81.02 E2.00481
G1 X140.182 Y82.938 E2.08977
G1 X141.895 Y84.779 E2.1734
G1 X142.603 Y85.5 E2.20701
G1 X143.356 Y86.287 E2.24324
G1 X144.01 Y87.024 E2.27601
G1 X144.606 Y87.778 E2.30798
G1 X144.946 Y88.279 E2.32812
G1 X145.329 Y88.88 E2.35182
G1 X145.968 Y90.036 E2.39575
G1 X146.277 Y90.716 E2.4206
G1 X146.468 Y91.174 E2.4371
G1 X146.887 Y92.38 E2.47956
G1 X147.666 Y95.139 E2.57492
G1 X148.399 Y97.485 E2.65666
G1 X149.663 Y101.096 E2.78391
G1 X149.98 Y101.955 E2.81437
G1 X150.365 Y103.234 E2.85879
G1 X150.522 Y103.914 E2.882
G1 X150.699 Y104.866 E2.91421
G1 X150.777 Y105.611 E2.93912
G1 X150.82 Y106.229 E2.95973
G1 X150.843 Y107.187 E2.9916
G1 X150.819 Y107.72 E3.00935
G1 X150.77 Y108.433 E3.03312
G1 X150.687 Y109.212 E3.05917
G1 X150.313 Y111.815 E3.14664
G1 X150.032 Y114.261 E3.22853
G1 X149.729 Y118.037 E3.35452
G1 X149.68 Y118.818 E3.38055
G1 X149.634 Y119.347 E3.39821
G1 X149.448 Y120.61 E3.44067
G1 X149.251 Y121.486 E3.47053
G1 X149.168 Y121.794 E3.48114
G1 X148.903 Y122.651 E3.51098
G1 X148.736 Y123.12 E3.52754
G1 X148.396 Y123.956 E3.55755
G1 X148.146 Y124.467 E3.57648
G1 X147.841 Y125.052 E3.59842
G1 X147.408 Y125.808 E3.6274
G1 X146.247 Y127.653 E3.6999
G1 X144.966 Y129.806 E3.78322
G1 X143.747 Y131.993 E3.8665
G1 X143.273 Y132.912 E3.90089
G1 X143.155 Y133.118 E3.90879
G1 X142.553 Y134.262 E3.95179
G1 X142.044 Y135.124 E3.98508
G1 X141.616 Y135.775 E4.01099
G1 X141.045 Y136.56 E4.04328
G1 X140.448 Y137.251 E4.07365
G1 X139.955 Y137.775 E4.09758
G1 X139.282 Y138.426 E4.12872
G1 X138.636 Y138.958 E4.15656
G1 X138.161 Y139.32 E4.17642
G1 X137.705 Y139.648 E4.1951
G1 X136.821 Y140.249 E4.23066
G1 X136.081 Y140.738 E4.26016
G1 X134.027 Y142.178 E4.34359
G1 X132.005 Y143.682 E4.42741
G1 X129.714 Y145.49 E4.52448
G1 X128.765 Y146.155 E4.56302
G1 X128.196 Y146.506 E4.58525
G1 X127.354 Y146.975 E4.61731
G1 X126.748 Y147.255 E4.63951
G1 X126.1 Y147.53 E4.66293
G1 X124.903 Y147.955 E4.70517
G1 X124.161 Y148.155 E4.73073
G1 X123.714 Y148.261 E4.74601
G1 X123.068 Y148.392 E4.76794
G1 X121.56 Y148.651 E4.81883
G1 X119.041 Y149.131 E4.90412
G1 X116.535 Y149.683 E4.98947
G1 X113.575 Y150.425 E5.09096
G1 X112.486 Y150.64 E5.12788
G1 X111.786 Y150.74 E5.1514
G1 X110.827 Y150.834 E5.18345
G1 X110.053 Y150.851 E5.2092
G1 X109.14 Y150.826 E5.23958
G1 X107.963 Y150.715 E5.2789
G1 X107.225 Y150.592 E5.30378
G1 X106.801 Y150.508 E5.31816
G1 X106.223 Y150.375 E5.33788
G1 X105.174 Y150.105 E5.37391
G1 X102.644 Y149.492 E5.46049
G1 X100.237 Y148.98 E5.54234
G1 X96.432 Y148.288 E5.67097
G1 X95.524 Y148.081 E5.70195
G1 X94.914 Y147.894 E5.72317
G1 X94.498 Y147.753 E5.73778
G1 X93.797 Y147.493 E5.76265
G1 X92.898 Y147.099 E5.79529
G1 X92.428 Y146.854 E5.81292
G1 X91.853 Y146.534 E5.83481
G1 X91.029 Y146.026 E5.867
G1 X90.417 Y145.577 E5.89225
G1 X87.902 Y143.6 E5.99865
G1 X85.906 Y142.119 E6.08132
G1 X83.773 Y140.63 E6.16784
G1 X82.422 Y139.727 E6.22188
G1 X81.738 Y139.244 E6.24973
G1 X80.658 Y138.36 E6.29615
G1 X80.119 Y137.845 E6.32095
G1 X79.844 Y137.567 E6.33395
G1 X79.151 Y136.793 E6.36851
G1 X78.635 Y136.128 E6.3965
G1 X78.344 Y135.725 E6.41304
G1 X77.821 Y134.924 E6.44485
G1 X77.554 Y134.447 E6.46304
G1 X76.137 Y131.757 E6.56416
G1 X74.925 Y129.604 E6.64633
G1 X72.962 Y126.378 E6.77194
G1 X72.64 Y125.873 E6.79186
G1 X72.354 Y125.397 E6.81033
G1 X72.084 Y124.92 E6.82856
G1 X71.675 Y124.115 E6.85859
G1 X71.387 Y123.427 E6.88339
G1 X71.137 Y122.761 E6.90705
G1 X70.743 Y121.474 E6.95182
G1 X70.587 Y120.781 E6.97545
G1 X70.515 Y120.4 E6.98834
G1 X70.356 Y119.175 E7.02943
G1 X70.222 Y117.231 E7.09424
G1 X70.005 Y114.629 E7.18108
G1 X69.731 Y112.174 E7.26324
G1 X69.285 Y108.959 E7.3712
G1 X69.189 Y107.977 E7.40402
G1 X69.159 Y106.698 E7.44657
G1 X69.196 Y105.946 E7.47161
G1 X69.243 Y105.386 E7.4903
G1 X69.361 Y104.458 E7.52142
G1 X69.521 Y103.693 E7.54741
G1 X69.681 Y103.052 E7.56938
G1 X70.033 Y101.911 E7.6091
G1 X70.441 Y100.811 E7.64812
G1 X71.282 Y98.432 E7.73204
G1 X72.068 Y95.995 E7.81721
G1 X72.751 Y93.661 E7.8981
G1 X73.059 Y92.56 E7.93612
G1 X73.354 Y91.664 E7.9675
G1 X73.594 Y91.031 E7.99001
G1 X74.175 Y89.753 E8.03671
G1 X74.544 Y89.09 E8.06194
G1 X74.807 Y88.653 E8.07891
G1 X75.339 Y87.852 E8.11089
G1 X75.724 Y87.355 E8.1318
G1 X76.143 Y86.846 E8.15373
G1 X76.719 Y86.204 E8.18241
G1 X78.609 Y84.252 E8.27278
G1 X80.316 Y82.386 E8.3569
G1 X82.001 Y80.436 E8.44261
G1 X83.288 Y78.87 E8.51003
G1 X83.943 Y78.143 E8.54258
G0 F9000 X84.22 Y78.431
G1 F1800 X84.628 Y78.038 E8.56142
G1 X85.153 Y77.559 E8.58506
G1 X85.867 Y76.963 E8.61599
G1 X86.303 Y76.648 E8.63388
G1 X86.867 Y76.273 E8.65641
G1 X87.293 Y76.007 E8.67311
G1 X88.11 Y75.546 E8.70431
G1 X88.892 Y75.189 E8.7329
G1 X92.15 Y73.859 E8.84995
G1 X94.437 Y72.85 E8.93309
G1 X96.794 Y71.731 E9.01987
G1 X98.007 Y71.12 E9.06504
G1 X98.511 Y70.883 E9.08357
G1 X99.167 Y70.607 E9.10724
G1 X99.602 Y70.439 E9.12275
G1 X100.81 Y70.055 E9.16491
G1 X101.484 Y69.894 E9.18795
G1 X101.943 Y69.8 E9.20354
G1 X102.864 Y69.653 E9.23456
G1 X103.52 Y69.6 E9.25645
G1 X104.198 Y69.565 E9.27903
G1 X105.175 Y69.56 E9.31152
G1 X106.263 Y69.606 E9.34774
G1 X108.867 Y69.68 E9.43439
G1 X111.365 Y69.68 E9.51747
G1 X115.262 Y69.559 E9.64715
G1 X116.165 Y69.571 E9.67718
G1 X116.932 Y69.641 E9.7028
G1 X117.624 Y69.731 E9.72601
G1 X118.545 Y69.893 E9.75711
G1 X119.316 Y70.094 E9.78361
G1 X119.998 Y70.301 E9.80732
G1 X120.881 Y70.613 E9.83847
G1 X121.655 Y70.961 E9.86669
G1 X122.648 Y71.457 E9.90361
G1 X124.956 Y72.572 E9.98886
G1 X127.285 Y73.615 E10.07374
G1 X129.703 Y74.619 E10.16082
G1 X130.747 Y75.038 E10.19824
G1 X131.258 Y75.256 E10.21671
G1 X132.1 Y75.661 E10.24779
G1 X132.695 Y76.007 E10.27068
G1 X133.331 Y76.404 E10.29562
G1 X134.105 Y76.937 E10.32688
G1 X134.808 Y77.518 E10.35721
G1 X135.271 Y77.936 E10.37796
G1 X135.914 Y78.57 E10.40799
G1 X136.302 Y79.01 E10.4275
G1 X138.195 Y81.284 E10.52591
G1 X139.889 Y83.21 E10.61122
G1 X141.602 Y85.051 E10.69486
G1 X142.314 Y85.776 E10.72866
G1 X143.057 Y86.553 E10.76442
G1 X143.696 Y87.272 E10.79641
G1 X144.275 Y88.003 E10.82743
G1 X144.609 Y88.494 E10.84718
G1 X144.979 Y89.074 E10.87006
G1 X145.604 Y90.202 E10.91295
G1 X145.908 Y90.87 E10.93736
G1 X146.09 Y91.306 E10.95308
G1 X146.502 Y92.489 E10.99474
G1 X147.284 Y95.258 E11.09044
G1 X148.021 Y97.617 E11.17264
G1 X149.285 Y101.228 E11.29989
G1 X149.597 Y102.07 E11.32975
G1 X149.975 Y103.325 E11.37335
G1 X150.129 Y103.988 E11.39599
G1 X150.301 Y104.908 E11.42712
G1 X150.378 Y105.639 E11.45156
G1 X150.42 Y106.239 E11.47157
G1 X150.443 Y107.169 E11.50251
G1 X150.42 Y107.693 E11.51995
G1 X150.372 Y108.391 E11.54323
G1 X150.291 Y109.155 E11.56878
G1 X149.917 Y111.758 E11.65624
G1 X149.633 Y114.229 E11.73897
G1 X149.33 Y118.005 E11.86496
G1 X149.281 Y118.784 E11.89093
G1 X149.238 Y119.289 E11.90778
G1 X149.052 Y120.552 E11.95024
G1 X148.864 Y121.383 E11.97858
G1 X148.786 Y121.676 E11.98867
G1 X148.526 Y122.517 E12.01794
G1 X148.365 Y122.969 E12.0339
G1 X148.025 Y123.805 E12.06392
G1 X147.791 Y124.282 E12.08159
G1 X147.494 Y124.853 E12.103
G1 X147.069 Y125.595 E12.13144
G1 X145.908 Y127.44 E12.20394
G1 X144.622 Y129.602 E12.28761
G1 X143.398 Y131.798 E12.37123
G1 X142.926 Y132.713 E12.40547
G1 X142.808 Y132.919 E12.41337
G1 X142.208 Y134.059 E12.45622
G1 X141.71 Y134.904 E12.48884
G1 X141.292 Y135.54 E12.51415
G1 X140.742 Y136.299 E12.54533
G1 X140.157 Y136.977 E12.57511
G1 X139.677 Y137.487 E12.5984
G1 X139.004 Y138.138 E12.62955
G1 X138.394 Y138.64 E12.65582
G1 X137.928 Y138.995 E12.67531
G1 X137.48 Y139.317 E12.69366
G1 X136.6 Y139.915 E12.72905
G1 X135.86 Y140.404 E12.75855
G1 X133.797 Y141.85 E12.84234
G1 X131.766 Y143.361 E12.92653
G1 X129.484 Y145.162 E13.02322
G1 X128.535 Y145.827 E13.06177
G1 X128.001 Y146.157 E13.08264
G1 X127.186 Y146.612 E13.11369
G1 X126.592 Y146.887 E13.13546
G1 X125.966 Y147.153 E13.15808
G1 X124.769 Y147.578 E13.20033
G1 X124.069 Y147.766 E13.22444
G1 X123.634 Y147.869 E13.23931
G1 X123 Y147.998 E13.26082
G1 X121.485 Y148.258 E13.31195
G1 X118.955 Y148.74 E13.39761
G1 X116.449 Y149.292 E13.48296
G1 X113.478 Y150.037 E13.58484
G1 X112.429 Y150.244 E13.6204
G1 X111.747 Y150.342 E13.64331
G1 X110.818 Y150.434 E13.67436
G1 X110.064 Y150.451 E13.69945
G1 X109.151 Y150.426 E13.72983
G1 X108.001 Y150.317 E13.76825
G1 X107.303 Y150.2 E13.79179
G1 X106.89 Y150.118 E13.80579
G1 X106.323 Y149.988 E13.82514
G1 X105.268 Y149.716 E13.86138
G1 X102.738 Y149.103 E13.94796
G1 X100.308 Y148.586 E14.03059
G1 X96.521 Y147.898 E14.15861
G1 X95.641 Y147.698 E14.18862
G1 X95.042 Y147.515 E14.20946
G1 X94.637 Y147.378 E14.22368
G1 X93.936 Y147.118 E14.24854
G1 X93.083 Y146.745 E14.27951
G1 X92.622 Y146.504 E14.29681
G1 X92.062 Y146.193 E14.31811
G1 X91.265 Y145.703 E14.34923
G1 X90.664 Y145.263 E14.37401
G1 X88.149 Y143.286 E14.48041
G1 X86.135 Y141.791 E14.56383
G1 X84.002 Y140.302 E14.65035
G1 X82.652 Y139.4 E14.70435
G1 X81.991 Y138.934 E14.73125
G1 X80.934 Y138.07 E14.77666
G1 X80.403 Y137.564 E14.80105
G1 X80.142 Y137.3 E14.8134
G1 X79.449 Y136.526 E14.84795
G1 X78.959 Y135.894 E14.87455
G1 X78.679 Y135.506 E14.89047
G1 X78.17 Y134.728 E14.92139
G1 X77.908 Y134.261 E14.9392
G1 X76.486 Y131.561 E15.04069
G1 X75.274 Y129.408 E15.12287
G1 X73.304 Y126.17 E15.24893
G1 X72.983 Y125.667 E15.26878
G1 X72.702 Y125.2 E15.28691
G1 X72.441 Y124.739 E15.30453
G1 X72.032 Y123.934 E15.33456
G1 X71.761 Y123.286 E15.35792
G1 X71.519 Y122.644 E15.38074
G1 X71.133 Y121.386 E15.42451
G1 X70.98 Y120.706 E15.44769
G1 X70.912 Y120.349 E15.45978
G1 X70.753 Y119.124 E15.50086
G1 X70.621 Y117.204 E15.56487
G1 X70.404 Y114.596 E15.65191
G1 X70.129 Y112.13 E15.73444
G1 X69.683 Y108.92 E15.84223
G1 X69.589 Y107.968 E15.87405
G1 X69.559 Y106.689 E15.9166
G1 X69.595 Y105.979 E15.94025
G1 X69.64 Y105.436 E15.95837
G1 X69.753 Y104.54 E15.98841
G1 X69.913 Y103.775 E16.0144
G1 X70.063 Y103.17 E16.03513
G1 X70.408 Y102.05 E16.07411
G1 X70.816 Y100.95 E16.11313
G1 X71.663 Y98.555 E16.19762
G1 X72.449 Y96.118 E16.28279
G1 X73.135 Y93.773 E16.36405
G1 X73.439 Y92.685 E16.40163
G1 X73.728 Y91.806 E16.4324
G1 X73.968 Y91.173 E16.45492
G1 X74.524 Y89.948 E16.49966
G1 X74.887 Y89.296 E16.52448
G1 X75.14 Y88.874 E16.54085
G1 X75.655 Y88.097 E16.57185
G1 X76.033 Y87.609 E16.59238
G1 X76.441 Y87.113 E16.61374
G1 X77.006 Y86.482 E16.64192
G1 X78.904 Y84.522 E16.73266
G1 X80.619 Y82.648 E16.81715
G1 X82.304 Y80.698 E16.90287
G1 X83.597 Y79.124 E16.97062
G1 X84.22 Y78.431 E17.00161
G0 F9000 X84.498 Y78.719
G1 F1800 X84.898 Y78.333 E17.0201
G1 X85.409 Y77.866 E17.04313
G1 X86.102 Y77.287 E17.07316
G1 X86.524 Y76.981 E17.0905
G1 X87.079 Y76.612 E17.11267
G1 X87.49 Y76.355 E17.12879
G1 X88.276 Y75.91 E17.15883
G1 X89.043 Y75.559 E17.18688
G1 X92.311 Y74.225 E17.30429
G1 X94.598 Y73.216 E17.38743
G1 X96.966 Y72.092 E17.47461
G1 X98.178 Y71.482 E17.51974
G1 X98.666 Y71.252 E17.53768
G1 X99.311 Y70.98 E17.56096
G1 X99.724 Y70.82 E17.57569
G1 X100.903 Y70.444 E17.61685
G1 X101.565 Y70.286 E17.63949
G1 X102.006 Y70.195 E17.65447
G1 X102.897 Y70.052 E17.68448
G1 X103.541 Y69.999 E17.70597
G1 X104.2 Y69.965 E17.72792
G1 X105.158 Y69.96 E17.75978
G1 X106.246 Y70.006 E17.796
G1 X108.856 Y70.08 E17.88285
G1 X111.377 Y70.08 E17.9667
G1 X115.257 Y69.959 E18.09581
G1 X116.16 Y69.971 E18.12584
G1 X116.881 Y70.038 E18.14993
G1 X117.555 Y70.125 E18.17253
G1 X118.444 Y70.28 E18.20255
G1 X119.2 Y70.477 E18.22853
G1 X119.865 Y70.678 E18.25164
G1 X120.717 Y70.978 E18.28168
G1 X121.476 Y71.319 E18.30935
G1 X122.469 Y71.815 E18.34627
G1 X124.784 Y72.933 E18.43178
G1 X127.122 Y73.98 E18.51698
G1 X129.554 Y74.99 E18.60457
G1 X130.59 Y75.406 E18.6417
G1 X131.085 Y75.617 E18.6596
G1 X131.899 Y76.007 E18.68962
G1 X132.483 Y76.346 E18.71208
G1 X133.105 Y76.734 E18.73646
G1 X133.85 Y77.245 E18.76651
G1 X134.54 Y77.815 E18.79628
G1 X134.99 Y78.221 E18.81643
G1 X135.633 Y78.855 E18.84647
G1 X135.995 Y79.266 E18.86468
G1 X137.895 Y81.548 E18.96345
G1 X139.596 Y83.482 E19.04911
G1 X141.309 Y85.323 E19.13275
G1 X142.025 Y86.052 E19.16674
G1 X142.758 Y86.819 E19.20202
G1 X143.383 Y87.521 E19.23329
G1 X143.944 Y88.228 E19.2633
G1 X144.272 Y88.71 E19.28269
G1 X144.629 Y89.268 E19.30473
G1 X145.254 Y90.396 E19.34762
G1 X145.539 Y91.024 E19.37056
G1 X145.712 Y91.438 E19.38548
G1 X146.117 Y92.598 E19.42635
G1 X146.902 Y95.377 E19.52239
G1 X147.643 Y97.749 E19.60505
G1 X148.909 Y101.365 E19.73247
G1 X149.214 Y102.185 E19.76157
G1 X149.585 Y103.416 E19.80433
G1 X149.736 Y104.062 E19.8264
G1 X149.903 Y104.95 E19.85645
G1 X149.979 Y105.667 E19.88043
G1 X150.02 Y106.249 E19.89984
G1 X150.043 Y107.152 E19.92988
G1 X150.021 Y107.666 E19.94699
G1 X149.974 Y108.349 E19.96976
G1 X149.895 Y109.098 E19.99481
G1 X149.521 Y111.701 E20.08228
G1 X149.234 Y114.197 E20.16584
G1 X148.931 Y117.973 E20.29184
G1 X148.882 Y118.751 E20.31776
G1 X148.842 Y119.231 E20.33378
G1 X148.656 Y120.494 E20.37625
G1 X148.477 Y121.281 E20.40309
G1 X148.404 Y121.558 E20.41262
G1 X148.149 Y122.383 E20.44134
G1 X147.994 Y122.818 E20.4567
G1 X147.654 Y123.654 E20.48671
G1 X147.436 Y124.098 E20.50317
G1 X147.147 Y124.654 E20.52401
G1 X146.73 Y125.382 E20.55191
G1 X145.569 Y127.227 E20.62441
G1 X144.278 Y129.397 E20.7084
G1 X143.042 Y131.615 E20.79285
G1 X142.579 Y132.514 E20.82648
G1 X142.461 Y132.72 E20.83438
G1 X141.863 Y133.856 E20.87708
G1 X141.365 Y134.701 E20.9097
G1 X140.968 Y135.306 E20.93377
G1 X140.439 Y136.038 E20.96381
G1 X139.866 Y136.703 E20.993
G1 X139.398 Y137.2 E21.01571
G1 X138.75 Y137.829 E21.04574
G1 X138.152 Y138.322 E21.07152
G1 X137.695 Y138.67 E21.09063
G1 X137.255 Y138.986 E21.10864
G1 X136.38 Y139.581 E21.14384
G1 X135.63 Y140.076 E21.17373
G1 X133.567 Y141.522 E21.25752
G1 X131.527 Y143.04 E21.34209
G1 X129.254 Y144.834 E21.4384
G1 X128.305 Y145.499 E21.47695
G1 X127.806 Y145.808 E21.49647
